!!!!SEGMENT: pl-cz--iii-277--001_gollabek-jakub--symfonia-c-allegro-molto.krn
!!!cenid: 17xx:891
!!!COM: Gołąbek, Jakub
!!!COM-rismid: pe30008748
!!!CDT: 1739-1789/03/30
!!!CNT: Polish
!!!OPR: Symfonia C
!!!OTL: Allegro molto
!!!OMV: 001
!!!PDT:
!!!AGN: Secular
!!!SMS-siglum: PL-CZ
!!!SMS-shelfmark: III-277
!!!SMS-shelfwork: 001-001 M
!!!SMS-variant:
!!!SMS-altvar:
!!!NIFC-rismid: 300000361
!!!URL-scan: http://repozytorium.nifc.pl/skany/pl-cz-nut--iii-277
!!!ONB-nifc: UWAGA: części Symfonii: Allegro molto, Andante, Prestissimo
**kern	**dynam	**kern	**dynam	**kern	**dynam	**kern	**dynam	**kern	**dynam	**kern	**kern	**dynam	**kern	**dynam
*group3	*	*group3	*	*group3	*	*group3	*	*group2	*	*group2	*group1	*	*group1	*
*part8	*part8	*part7	*part7	*part6	*part6	*part5	*part5	*part4	*part4	*part3	*part2	*part2	*part1	*part1
*staff8	*	*staff7	*	*staff6	*	*staff5	*	*staff4	*	*staff3	*staff2	*	*staff1	*
*I"Baſso	*	*I"Viola.	*	*I"Violino Secundo	*	*I"Violino Primo.	*	*I"Cornu Secundo.	*	*I"Cornu Primo in C	*I"Oboe Secundo.	*	*I"Oboe Primo.	*
*I'bc	*	*I'vla	*	*I'vl 2	*	*I'vl 1	*	*I'cor 2	*	*I'cor 1	*I'ob 2	*	*I'ob 1	*
*Icbass	*	*Iviola	*	*Ivioln	*	*Ivioln	*	*Icor	*	*Icor	*Ioboe	*	*Ioboe	*
*ICstr	*	*ICstr	*	*ICstr	*	*ICstr	*	*ICbras	*	*ICbras	*ICww	*	*ICww	*
*>[A,A,B,B]	*	*>[A,A,B,B]	*	*>[A,A,B,B]	*	*>[A,A,B,B]	*	*>[A,A,B,B]	*	*>[A,A,B,B]	*>[A,A,B,B]	*	*>[A,A,B,B]	*
*clefF4	*	*clefC3	*	*clefG2	*	*clefG2	*	*clefG2	*	*clefG2	*clefG2	*	*clefG2	*
*Trd0c0	*	*	*	*	*	*	*	*Trd0c0	*	*Trd0c0	*	*	*	*
*k[]	*	*k[]	*	*k[]	*	*k[]	*	*k[]	*	*k[]	*k[]	*	*k[]	*
*C:	*	*C:	*	*C:	*	*C:	*	*C:	*	*C:	*C:	*	*C:	*
*M4/4	*	*M4/4	*	*M4/4	*	*M4/4	*	*M4/4	*	*M4/4	*M4/4	*	*M4/4	*
*met(c)	*	*met(c)	*	*met(c)	*	*met(c)	*	*met(c)	*	*met(c)	*met(c)	*	*met(c)	*
=1	=1	=1	=1	=1	=1	=1	=1	=1	=1	=1	=1	=1	=1	=1
*>A	*	*>A	*	*>A	*	*>A	*	*>A	*	*>A	*>A	*	*>A	*
!LO:TX:a:t=Allo molto	!	!LO:TX:a:t=Allo molto	!	!LO:TX:a:t=Allegro molto	!	!LO:TX:a:t=Allegro molto	!	!LO:TX:a:i:t=Allo molto	!	!LO:TX:a:i:t=Allo molto	!LO:TX:a:i:t=Allo molto	!	!LO:TX:a:i:t=Allo molto	!
4c\	.	4c\	.	4cc/ 4e/ 4G/	.	4cc/ 4e/ 4G/	.	4c/	.	4cc\	4cc\	.	4ee\	.
16C/LL	.	16c\LL	.	16c/LL	.	4r	.	4r	.	4r	4ee\	.	4gg\	.
16BB/	.	16B\	.	16B/	.	.	.	.	.	.	.	.	.	.
16C/	.	16c\	.	16c/	.	.	.	.	.	.	.	.	.	.
!	!	!	!LO:DY:a:t=for	!	!	!	!	!	!	!	!	!	!	!
16D/JJ	.	16d\JJ	f	16d/JJ	.	.	.	.	.	.	.	.	.	.
!	!LO:DY:a:t=for&colon;	!	!	!	!	!	!	!	!	!	!	!	!	!
16E/LL	f	16e\LL	.	16e/LL	.	4r	.	4r	.	4r	4ee\	.	4gg\	.
16D/	.	16d\	.	16d/	.	.	.	.	.	.	.	.	.	.
16E/	.	16e\	.	16e/	.	.	.	.	.	.	.	.	.	.
16F/JJ	.	16f\JJ	.	16f/JJ	.	.	.	.	.	.	.	.	.	.
16G/LL	.	16g\LL	.	16g/LL	.	8r	.	4G/	.	4g/	4dd\	.	4ff\	.
16F/	.	16f\	.	16f/	.	.	.	.	.	.	.	.	.	.
16E/	.	16e\	.	16e/	.	8b/ 8d/ 8G/	.	.	.	.	.	.	.	.
16D/JJ	.	16d\JJ	.	16d/JJ	.	.	.	.	.	.	.	.	.	.
=2	=2	=2	=2	=2	=2	=2	=2	=2	=2	=2	=2	=2	=2	=2
4C/	.	4c\	.	4c/	.	4cc/ 4e/ 4G/	.	4c/	.	4cc\	4cc\	.	4ee\	.
16C/LL	.	16c\LL	.	16c/LL	.	4r	.	4r	.	4r	8ee\L	.	8ccc\L	.
16BB/	.	16B\	.	16B/	.	.	.	.	.	.	.	.	.	.
16C/	.	16c\	.	16c/	.	.	.	.	.	.	8ff\J	.	8aa\J	.
16D/JJ	.	16d\JJ	.	16d/JJ	.	.	.	.	.	.	.	.	.	.
16E\LL	.	16e\LL	.	16e/LL	.	4r	.	4r	.	4r	4ee\	.	4gg\	.
16D\	.	16d\	.	16d/	.	.	.	.	.	.	.	.	.	.
16E\	.	16e\	.	16e/	.	.	.	.	.	.	.	.	.	.
16F\JJ	.	16f\JJ	.	16f/JJ	.	.	.	.	.	.	.	.	.	.
16G\LL	.	16g\LL	.	16g/LL	.	8r	.	4G/	.	4g/	4dd\	.	4ff\	.
16F\	.	16f\	.	16f/	.	.	.	.	.	.	.	.	.	.
16E\	.	16e\	.	16e/	.	8b/ 8d/ 8G/	.	.	.	.	.	.	.	.
16D\JJ	.	16d\JJ	.	16d/JJ	.	.	.	.	.	.	.	.	.	.
=3	=3	=3	=3	=3	=3	=3	=3	=3	=3	=3	=3	=3	=3	=3
16C|/LL	.	16c\LL	.	16c/LL	.	16c/LL	.	4c/	.	4cc\	4cc\	.	4ee\	.
16BB|/	.	16B\	.	16B/	.	16B/	.	.	.	.	.	.	.	.
16C|/	.	16c\	.	16c/	.	16c/	.	.	.	.	.	.	.	.
16D|/JJ	.	16d\JJ	.	16d/JJ	.	16d/JJ	.	.	.	.	.	.	.	.
16E|\LL	.	16e\LL	.	16e/LL	.	16e/LL	.	4e/	.	4ee\	(16ee\LL	.	16ee\LL	.
16D|\	.	16d\	.	16d/	.	16d/	.	.	.	.	16dd\)	.	16dd\	.
16E|\	.	16e\	.	16e/	.	16e/	.	.	.	.	16ee'\	.	16ee\	.
16F|\JJ	.	16f\JJ	.	16f/JJ	.	16f/JJ	.	.	.	.	16ff'\JJ	.	16ff\JJ	.
16G|\LL	.	16g\LL	.	16g/LL	.	16g/LL	.	4g/	.	4gg\	(16gg\LL	.	16gg\LL	.
!	!	!	!	!LO:TX:b:t=f	!	!	!	!	!	!	!	!	!	!
!	!	!	!	!LO:SIC:v:s=16f/	!	!	!	!	!	!	!	!	!	!
16F|\	.	16f\	.	16e/	.	16f/	.	.	.	.	16ff\)	.	16ff\	.
16G|\	.	16g\	.	16g/	.	16g/	.	.	.	.	16gg'\	.	16gg\	.
16A|\JJ	.	16a\JJ	.	16a/JJ	.	16a/JJ	.	.	.	.	16aa'\JJ	.	16aa\JJ	.
!LO:LB:g=original	!	!	!	!	!	!	!	!	!	!	!	!	!	!
16B|\LL	.	16b\LL	.	16b/LL	.	16b/LL	.	4G/	.	4g/	(16bb\LL	.	16bb\LL	.
16A|\	.	16a\	.	16a/	.	16a/	.	.	.	.	16aa\)	.	16aa\	.
16B|\	.	16b\	.	16b/	.	16b/	.	.	.	.	16bb'\	.	16bb\	.
16G|\JJ	.	16g\JJ	.	16g/JJ	.	16g/JJ	.	.	.	.	16gg'\JJ	.	16gg\JJ	.
!	!	!	!	!LO:LB:g=original	!	!	!	!	!	!	!	!	!	!
=4	=4	=4	=4	=4	=4	=4	=4	=4	=4	=4	=4	=4	=4	=4
16c\LL	.	16cc\LL	.	16cc\LL	.	16cc\LL	.	4c/	.	4cc\	4cc\	.	4ccc\	.
16B\	.	16b\	.	16b\	.	16b\	.	.	.	.	.	.	.	.
16c\	.	16cc\	.	16cc\	.	16cc\	.	.	.	.	.	.	.	.
16d\JJ	.	16dd\JJ	.	16dd\JJ	.	16dd\JJ	.	.	.	.	.	.	.	.
16c\LL	.	16e\LL	.	16ee\LL	.	16ee\LL	.	4e/	.	4ee\	4ee\	.	4gg\	.
16B\	.	16d\	.	16dd\	.	16dd\	.	.	.	.	.	.	.	.
16c\	.	16e\	.	16ee\	.	16ee\	.	.	.	.	.	.	.	.
16A\JJ	.	16f\JJ	.	16ff\JJ	.	16ff\JJ	.	.	.	.	.	.	.	.
!	!	!LO:LB:g=original	!	!	!	!	!	!	!	!	!	!	!	!
4G\	.	4g\	.	4gg\	.	4gg\	.	4g/	.	4gg\	4gg\	.	4gg\	.
4r	.	4r	.	4r	.	4r	.	4r	.	4r	4r	.	4r	.
!	!	!	!	!	!	!	!	!	!	!	!	!	!LO:LB:g=original	!
=5	=5	=5	=5	=5	=5	=5	=5	=5	=5	=5	=5	=5	=5	=5
!	!	!	!LO:DY:a:t=p	!	!	!	!	!	!	!	!	!	!	!
4c\	.	4c\	p	4cc/ 4e/ 4G/	.	4cc/ 4e/ 4G/	.	4c/	.	4cc\	4cc\	.	4ee\	.
!	!LO:DY:a:t=p.	!	!	!	!LO:DY:a	!	!	!	!	!	!	!	!	!
16C\LL	p	16c\LL	.	16c/LL	p	4r	.	4r	.	4r	4ee\	.	4gg\	.
16BB\	.	16B\	.	16B/	.	.	.	.	.	.	.	.	.	.
16C\	.	16c\	.	16c/	.	.	.	.	.	.	.	.	.	.
16D\JJ	.	16d\JJ	.	16d/JJ	.	.	.	.	.	.	.	.	.	.
16E\LL	.	16e\LL	.	16e/LL	.	4r	.	4r	.	4r	4ee\	.	4gg\	.
16D\	.	16d\	.	16d/	.	.	.	.	.	.	.	.	.	.
16E\	.	16e\	.	16e/	.	.	.	.	.	.	.	.	.	.
16F\JJ	.	16f\JJ	.	16f/JJ	.	.	.	.	.	.	.	.	.	.
16G\LL	.	16g\LL	.	16g/LL	.	8r	.	4G/	.	4g/	4dd\	.	4ff\	.
16F\	.	16f\	.	16f/	.	.	.	.	.	.	.	.	.	.
16E\	.	16e\	.	16e/	.	8b/ 8d/	.	.	.	.	.	.	.	.
16D\JJ	.	16d\JJ	.	16d/JJ	.	.	.	.	.	.	.	.	.	.
!	!	!	!	!	!	!	!	!	!	!	!LO:LB:g=original	!	!	!
=6	=6	=6	=6	=6	=6	=6	=6	=6	=6	=6	=6	=6	=6	=6
4C/	.	4c\	.	4c/	.	4cc/ 4e/ 4G/	.	4c/	.	4cc\	4cc\	.	4ee\	.
16C/LL	.	16c\LL	.	16c/LL	.	4r	.	4r	.	4r	8ee\L	.	8ccc\L	.
16BB/	.	16B\	.	16B/	.	.	.	.	.	.	.	.	.	.
16C/	.	16c\	.	16c/	.	.	.	.	.	.	8ff\J	.	8aa\J	.
16D/JJ	.	16d\JJ	.	16d/JJ	.	.	.	.	.	.	.	.	.	.
16E\LL	.	16e\LL	.	16e/LL	.	4r	.	4r	.	4r	4ee\	.	4gg\	.
16D\	.	16d\	.	16d/	.	.	.	.	.	.	.	.	.	.
16E\	.	16e\	.	16e/	.	.	.	.	.	.	.	.	.	.
16F\JJ	.	16f\JJ	.	16f/JJ	.	.	.	.	.	.	.	.	.	.
16G\LL	.	16g\LL	.	16g/LL	.	8r	.	4G/	.	4g/	4dd\	.	4ff\	.
16F\	.	16f\	.	16f/	.	.	.	.	.	.	.	.	.	.
!	!	!	!	!	!	!LO:LB:g=original	!	!	!	!	!	!	!	!
16E\	.	16e\	.	16e/	.	8b/ 8d/	.	.	.	.	.	.	.	.
16D\JJ	.	16d\JJ	.	16d/JJ	.	.	.	.	.	.	.	.	.	.
!	!	!	!	!	!	!	!	!LO:LB:g=original	!	!LO:LB:g=original	!	!	!	!
=7	=7	=7	=7	=7	=7	=7	=7	=7	=7	=7	=7	=7	=7	=7
!	!LO:DY:a:t=f	!	!LO:DY:a:t=for.	!	!LO:DY:a	!	!	!	!	!	!	!	!	!
16C/LL	f	16c\LL	f	16c/LL	f	16c/LL	.	4c/	.	4c/	4cc\	.	4ee\	.
16BB/	.	16B\	.	16B/	.	16B/	.	.	.	.	.	.	.	.
16C/	.	16c\	.	16c/	.	16c/	.	.	.	.	.	.	.	.
16D/JJ	.	16d\JJ	.	16d/JJ	.	16d/JJ	.	.	.	.	.	.	.	.
!LO:LB:g=original	!	!	!	!	!	!	!	!	!	!	!	!	!	!
16E/LL	.	16e\LL	.	16e/LL	.	16e/LL	.	4e/	.	4e/	4r	.	4r	.
16D/	.	16d\	.	16d/	.	16d/	.	.	.	.	.	.	.	.
16E/	.	16e\	.	16e/	.	16e/	.	.	.	.	.	.	.	.
16F/JJ	.	16f\JJ	.	16f/JJ	.	16f/JJ	.	.	.	.	.	.	.	.
!	!	!	!	!LO:LB:g=original	!	!	!	!	!	!	!	!	!	!
16G\LL	.	16g\LL	.	16g/LL	.	16g/LL	.	4g/	.	4g/	(16gg\LL	.	16gg\LL	.
16F\	.	16f\	.	16f/	.	16f/	.	.	.	.	16ff\)	.	16ff\	.
16G\	.	16g\	.	16g/	.	16g/	.	.	.	.	16gg'\	.	16gg\	.
16A\JJ	.	16a\JJ	.	16a/JJ	.	16a/JJ	.	.	.	.	16aa'\JJ	.	16aa\JJ	.
16B\LL	.	16b\LL	.	16b/LL	.	16b/LL	.	4G/	.	4g/	(16bb\LL	.	16bb\LL	.
16A\	.	16a\	.	16a/	.	16a/	.	.	.	.	16aa\)	.	16aa\	.
16B\	.	16b\	.	16b/	.	16b/	.	.	.	.	16bb'\	.	16bb\	.
16G\JJ	.	16g\JJ	.	16g/JJ	.	16g/JJ	.	.	.	.	16gg'\JJ	.	16gg\JJ	.
=8	=8	=8	=8	=8	=8	=8	=8	=8	=8	=8	=8	=8	=8	=8
16C/LL	.	16c\LL	.	16cc\LL	.	16cc\LL	.	4c/	.	4cc\	4ccc\	.	4ccc\	.
16BB/	.	16B\	.	16b\	.	16b\	.	.	.	.	.	.	.	.
16C/	.	16c\	.	16cc\	.	16cc\	.	.	.	.	.	.	.	.
16D/JJ	.	16d\JJ	.	16dd\JJ	.	16dd\JJ	.	.	.	.	.	.	.	.
16E\LL	.	16e\LL	.	16ee\LL	.	16ee\LL	.	4e/	.	4ee\	(16ee\LL	.	16ee\LL	.
16D\	.	16d\	.	16dd\	.	16dd\	.	.	.	.	16dd\)	.	16dd\	.
16E\	.	16e\	.	16ee\	.	16ee\	.	.	.	.	16ee'\	.	16ee\	.
16F\JJ	.	16f\JJ	.	16ff\JJ	.	16ff\JJ	.	.	.	.	16ff'\JJ	.	16ff\JJ	.
!	!	!LO:LB:g=original	!	!	!	!	!	!	!	!	!	!	!	!
16G\LL	.	16g\LL	.	16gg\LL	.	16gg\LL	.	4g/	.	4gg\	(16gg\LL	.	16gg\LL	.
16F\	.	16f\	.	16ff\	.	16ff\	.	.	.	.	16ff\)	.	16ff\	.
16G\	.	16g\	.	16gg\	.	16gg\	.	.	.	.	16gg'\	.	16gg\	.
16A\JJ	.	16a\JJ	.	16aa\JJ	.	16aa\JJ	.	.	.	.	16aa'\JJ	.	16aa\JJ	.
16G\LL	.	16g\LL	.	16gg\LL	.	16gg\LL	.	4g/	.	4dd\	(16gg\LL	.	16gg\LL	.
16A\	.	16a\	.	16aa\	.	16aa\	.	.	.	.	16aa\)	.	16aa\	.
16B\	.	16b\	.	16bb\	.	16bb\	.	.	.	.	16bb'\	.	16bb\	.
16G\JJ	.	16g\JJ	.	16gg\JJ	.	16gg\JJ	.	.	.	.	16gg'\JJ	.	16gg\JJ	.
=9	=9	=9	=9	=9	=9	=9	=9	=9	=9	=9	=9	=9	=9	=9
*	*	*tremolo	*	*	*	*	*	*	*	*	*	*	*	*
16C/LL	.	16cc\LL	.	4ccc\	.	4ccc\	.	4cc\	.	4ee\	4ee\	.	4ccc\	.
16D/	.	16cc\	.	.	.	.	.	.	.	.	.	.	.	.
16E/	.	16cc\	.	.	.	.	.	.	.	.	.	.	.	.
16F/JJ	.	16cc\JJ	.	.	.	.	.	.	.	.	.	.	.	.
16G\LL	.	16G/LL	.	16e/LL 16G/	.	8.c/L	.	8c/L	.	8c/L	(8cc\L	.	8ee\L	.
16A\	.	16G/	.	16e/ 16G/	.	.	.	.	.	.	.	.	.	.
16B\	.	16G/	.	16e/ 16G/	.	.	.	8c/J	.	8c/J	8ee\J)	.	8gg\J	.
16c\JJ	.	16G/JJ	.	16e/JJ 16G/	.	16c/Jk	.	.	.	.	.	.	.	.
*	*	*	*	*tremolo	*	*	*	*	*	*	*	*	*	*
16BB-X/LL	.	16G/LL	.	16e/ 16G/LL	.	2B-X/	.	8c/L	.	8c/L	(8ee\L	.	(8gg\L	.
16C/	.	16G/	.	16e/ 16G/	.	.	.	.	.	.	.	.	.	.
16D/	.	16G/	.	16e/ 16G/	.	.	.	8c/J	.	8c/J	8gg\J)	.	8bb\J)	.
16E/JJ	.	16G/	.	16e/ 16G/	.	.	.	.	.	.	.	.	.	.
16F\LL	.	16G/	.	16e/ 16G/	.	.	.	8c/L	.	8c/L	(8ee\L	.	8gg\L	.
16G\	.	16G/	.	16e/ 16G/	.	.	.	.	.	.	.	.	.	.
16A\	.	16G/	.	16e/ 16G/	.	.	.	8c/J	.	8c/J	8gg\J)	.	8bb-X\J	.
16B-X\JJ	.	16G/JJ	.	16e/ 16G/JJ	.	.	.	.	.	.	.	.	.	.
*	*	*Xtremolo	*	*Xtremolo	*	*	*	*	*	*	*	*	*	*
!LO:LB:g=original	!	!	!	!	!	!LO:LB:g=original	!	!	!	!	!LO:LB:g=original	!	!LO:LB:g=original	!
=10	=10	=10	=10	=10	=10	=10	=10	=10	=10	=10	=10	=10	=10	=10
!	!	!	!LO:DY:a	!	!LO:DY:a:t=p	!	!LO:DY:a	!	!	!	!	!	!	!
4A\	.	4G/	p	4f/	p	4A/	p	4c/	.	4c/	4ff\	.	4aa\	.
!	!LO:DY:a	!	!	!	!	!	!	!	!	!	!	!	!	!
8F\L	p	8f\L	.	(16a/KL	.	(16ff\KL	.	4r	.	4r	4r	.	4r	.
.	.	.	.	8.f/J)	.	8.dd\J)	.	.	.	.	.	.	.	.
8F\J	.	8f\J	.	.	.	.	.	.	.	.	.	.	.	.
8E\L	.	8e\L	.	16e/KL	.	(16cc\KL	.	2r	.	2r	2r	.	2r	.
.	.	.	.	8.d/J	.	8.bn\J)	.	.	.	.	.	.	.	.
8F\J	.	8f\J	.	.	.	.	.	.	.	.	.	.	.	.
!LO:TX:t=P:problem=mixed beam	!	!LO:TX:t=P:problem=mixed beam	!	!	!	!	!	!	!	!	!	!	!	!
8G\L	.	8g\L	.	16f/KL	.	16aa\KL	.	.	.	.	.	.	.	.
.	.	.	.	8.d/J	.	8.b\J	.	.	.	.	.	.	.	.
8GG/J	.	8G/J	.	.	.	.	.	.	.	.	.	.	.	.
=11	=11	=11	=11	=11	=11	=11	=11	=11	=11	=11	=11	=11	=11	=11
*	*	*tremolo	*	*	*	*	*	*	*	*	*	*	*	*
!	!LO:DY:a	!	!LO:DY:a:t=for	!	!LO:DY:a:t=for	!	!LO:DY:a	!	!	!	!	!	!	!
16C\LL	f	16G/LL	f	4e/	f	4cc\	f	4r	.	4r	4r	.	4r	.
16D\	.	16G/	.	.	.	.	.	.	.	.	.	.	.	.
16E\	.	16G/	.	.	.	.	.	.	.	.	.	.	.	.
16F\JJ	.	16G/	.	.	.	.	.	.	.	.	.	.	.	.
*	*	*	*	*tremolo	*	*	*	*Xtuplet	*	*	*	*	*	*
!	!	!	!	!	!	!	!	!	!	!LO:TUP:b	!	!	!	!
16G\LL	.	16G/	.	16e/ 16G/LL	.	8.ccc\L	.	12c/L	.	12c/L	(8cc\L	.	(8ee\L	.
16A\	.	16G/	.	16e/ 16G/	.	.	.	.	.	.	.	.	.	.
.	.	.	.	.	.	.	.	12c/	.	12c/	.	.	.	.
16B\	.	16G/	.	16e/ 16G/	.	.	.	.	.	.	8ee\J)	.	8gg\J)	.
.	.	.	.	.	.	.	.	12c/J	.	12c/J	.	.	.	.
16c\JJ	.	16G/JJ	.	16e/ 16G/JJ	.	16ccc\Jk	.	.	.	.	.	.	.	.
!	!	!	!	!	!	!	!	!	!	!LO:TUP:b	!	!	!	!
16BB-X/LL	.	16G/LL	.	16e/ 16G/LL	.	2B-X/	.	12c/L	.	12c/L	(8ee\L	.	(8gg\L	.
16C/	.	16G/	.	16e/ 16G/	.	.	.	.	.	.	.	.	.	.
.	.	.	.	.	.	.	.	12c/	.	12c/	.	.	.	.
16D/	.	16G/	.	16e/ 16G/	.	.	.	.	.	.	8gg\J)	.	8bb-X\J)	.
.	.	.	.	.	.	.	.	12c/J	.	12c/J	.	.	.	.
16E/JJ	.	16G/	.	16e/ 16G/	.	.	.	.	.	.	.	.	.	.
!	!	!	!	!	!	!	!	!	!	!LO:TUP:b	!	!	!	!
16F\LL	.	16G/	.	16e/ 16G/	.	.	.	12c/L	.	12c/L	(8ee\L	.	(8gg\L	.
16G\	.	16G/	.	16e/ 16G/	.	.	.	.	.	.	.	.	.	.
.	.	.	.	.	.	.	.	12c/	.	12c/	.	.	.	.
16A\	.	16G/	.	16e/ 16G/	.	.	.	.	.	.	8gg\J)	.	8bb-\J)	.
.	.	.	.	.	.	.	.	12c/J	.	12c/J	.	.	.	.
16B-X\JJ	.	16G/JJ	.	16e/ 16G/JJ	.	.	.	.	.	.	.	.	.	.
*	*	*Xtremolo	*	*Xtremolo	*	*	*	*	*	*	*	*	*	*
!	!	!	!	!LO:LB:g=original	!	!	!	!	!	!	!	!	!	!
=12	=12	=12	=12	=12	=12	=12	=12	=12	=12	=12	=12	=12	=12	=12
!	!	!	!LO:DY:a:t=p	!	!LO:DY:a	!	!LO:DY:a	!	!	!	!	!	!	!
4A\	.	4F/	p	4f/	p	4A/	p	4c/	.	4c/	4ff\	.	4aa\	.
!	!LO:DY:a:t=p	!	!	!	!	!	!	!	!	!	!	!	!	!
8F\L	p	8f\L	.	(16f/KL	.	(16dd\KL	.	4r	.	4r	4r	.	4r	.
.	.	.	.	8.a/J)	.	8.ff\J)	.	.	.	.	.	.	.	.
8F\J	.	8f\J	.	.	.	.	.	.	.	.	.	.	.	.
8E\L	.	8g\L	.	(16g/KL	.	(16ee\KL	.	2r	.	2r	2r	.	2r	.
.	.	.	.	8.e/J)	.	8.cc\J)	.	.	.	.	.	.	.	.
8F\J	.	8g\J	.	.	.	.	.	.	.	.	.	.	.	.
!LO:TX:t=P:problem=mixed beam	!	!	!	!	!	!	!	!	!	!	!	!	!	!
8G\L	.	8G/L	.	16d/KL	.	(16bn\KL	.	.	.	.	.	.	.	.
.	.	.	.	8.f/J	.	8.dd\J)	.	.	.	.	.	.	.	.
8GG/J	.	8G/J	.	.	.	.	.	.	.	.	.	.	.	.
!	!	!	!	!	!	!	!	!LO:LB:g=original	!	!	!	!	!	!
=13	=13	=13	=13	=13	=13	=13	=13	=13	=13	=13	=13	=13	=13	=13
!	!LO:DY:a	!	!LO:DY:a	!	!LO:DY:a	!	!LO:DY:a	!	!	!	!	!	!	!
4C/	f	4c/	f	4cc/ 4e/ 4G/	f	4cc/ 4e/ 4G/	f	4e/	.	4cc\	4r	.	4r	.
*	*	*tremolo	*	*	*	*	*	*	*	*	*	*	*	*
!	!	!	!LO:DY:a	!	!	!	!	!	!	!	!	!	!	!
4r	.	8c/L	p	4r	.	4r	.	4r	.	4r	16cc\LL	.	16ee\LL	.
.	.	.	.	.	.	.	.	.	.	.	16b\	.	(16dd\	.
.	.	8c/J	.	.	.	.	.	.	.	.	16cc\	.	16ee\	.
.	.	.	.	.	.	.	.	.	.	.	16dd\JJ	.	16ff\JJ)	.
2r	.	8c/L	.	2r	.	2r	.	2r	.	2r	8ee\L	.	8gg\L	.
.	.	8c/	.	.	.	.	.	.	.	.	8aa\	.	8ccc\	.
.	.	8c/	.	.	.	.	.	.	.	.	8gg\	.	8bb\	.
.	.	8c/J	.	.	.	.	.	.	.	.	8ff\J	.	8aa\J	.
*	*	*Xtremolo	*	*	*	*	*	*	*	*	*	*	*	*
!	!	!	!	!	!	!	!	!	!	!LO:LB:g=original	!	!	!	!
=14	=14	=14	=14	=14	=14	=14	=14	=14	=14	=14	=14	=14	=14	=14
!	!LO:DY:a:t=p	!	!	!	!LO:DY:a	!	!LO:DY:a	!	!	!	!	!	!	!
4r	p	4c\	.	4r	p	4r	p	1r	.	1r	4ee\	.	4gg\	.
4E\	.	4e\	.	(16e/KL	.	(16cc\KL	.	.	.	.	4r	.	4r	.
.	.	.	.	8.g/J)	.	8.ee\J)	.	.	.	.	.	.	.	.
4F\	.	4f\	.	(16f/KL	.	(16dd\KL	.	.	.	.	2r	.	2r	.
.	.	.	.	8.a/J)	.	8.ff\J)	.	.	.	.	.	.	.	.
4G\	.	4g\	.	(16d/KL	.	16b\KL	.	.	.	.	.	.	.	.
.	.	.	.	8.f/J)	.	8.dd\J	.	.	.	.	.	.	.	.
!LO:LB:g=original	!	!	!	!	!	!	!	!	!	!	!	!	!	!
=15	=15	=15	=15	=15	=15	=15	=15	=15	=15	=15	=15	=15	=15	=15
!	!LO:DY:a	!	!LO:DY:a	!	!LO:DY:a	!	!LO:DY:a	!	!	!	!	!	!	!
4C/	f	4c\	f	4cc/ 4e/ 4G/	f	4cc/ 4e/ 4G/	f	4e/	.	4cc\	4r	.	4r	.
!	!	!	!LO:DY:a:t=p	!	!	!	!	!	!	!	!	!	!	!
4r	.	8c/L	p	4r	.	4r	.	4r	.	4r	16ee\LL	.	16gg\LL	.
.	.	.	.	.	.	.	.	.	.	.	16dd\	.	16ff\	.
.	.	8c/J	.	.	.	.	.	.	.	.	16cc\	.	16ee\	.
.	.	.	.	.	.	.	.	.	.	.	16dd\JJ	.	16ff\JJ	.
*	*	*tremolo	*	*	*	*	*	*	*	*	*	*	*	*
2r	.	8c/L	.	2r	.	2r	.	2r	.	2r	(8ee\L	.	8gg\L	.
.	.	8c/	.	.	.	.	.	.	.	.	8ff\)	.	8aa\	.
.	.	8c/	.	.	.	.	.	.	.	.	(8dd'\	.	8bb\	.
.	.	8c/J	.	.	.	.	.	.	.	.	8ee\J)	.	8ccc\J	.
*	*	*Xtremolo	*	*	*	*	*	*	*	*	*	*	*	*
!	!	!	!	!	!	!	!	!	!	!	!LO:LB:g=original	!	!LO:LB:g=original	!
=16	=16	=16	=16	=16	=16	=16	=16	=16	=16	=16	=16	=16	=16	=16
!	!	!	!	!	!LO:DY:a	!	!LO:DY:a	!	!	!	!	!	!	!
4r	.	4c\	.	4r	p	4r	p	1r	.	1r	4ee\	.	4gg\	.
!	!LO:DY:a	!	!	!	!	!	!	!	!	!	!	!	!	!
4E\	p	4e\	.	(16g/KL	.	(16ee\KL	.	.	.	.	4r	.	4r	.
.	.	.	.	8.e/J)	.	8.cc\J)	.	.	.	.	.	.	.	.
4F\	.	4f\	.	(16a/KL	.	(16ff\KL	.	.	.	.	2r	.	2r	.
.	.	.	.	8.f/J)	.	8.ee\J)	.	.	.	.	.	.	.	.
4G\	.	4g\	.	(16e/KL	.	(16dd\KL	.	.	.	.	.	.	.	.
.	.	.	.	8.d/J)	.	8.b\J)	.	.	.	.	.	.	.	.
!	!	!LO:LB:g=original	!	!	!	!LO:LB:g=original	!	!	!	!	!	!	!	!
=17	=17	=17	=17	=17	=17	=17	=17	=17	=17	=17	=17	=17	=17	=17
!	!LO:DY:a:rj:t=fo	!	!LO:DY:a:rj	!	!LO:DY:a	!	!LO:DY:a:rj	!	!	!	!	!	!	!
4.c\	f	4.cc\	f	4.e/ 4.G/	f	4.cc\	f	4.c/	.	4.c/	4cc\	.	4ee\	.
.	.	.	.	.	.	.	.	.	.	.	4r	.	4r	.
(32C/LLL	.	32c\LLL	.	(32c/LLL	.	(32c/LLL	.	8c/	.	8c/	.	.	.	.
32D/	.	(32d\	.	32d/	.	32d/	.	.	.	.	.	.	.	.
32E/	.	32e\	.	32e/	.	32e/	.	.	.	.	.	.	.	.
32F/JJJ)	.	32f\JJJ)	.	32f/JJJ)	.	32f/JJJ)	.	.	.	.	.	.	.	.
4.G\	.	4.g\	.	4.g/	.	4.g/	.	4.c/	.	4.e/	4ee\	.	4gg\	.
.	.	.	.	.	.	.	.	.	.	.	4r	.	4r	.
*Xtuplet	*	*Xtuplet	*	*Xtuplet	*	*Xtuplet	*	*	*	*	*	*	*	*
40E\LLL	.	(40e\LLL	.	40e/LLL	.	40e/LLL	.	8c/	.	8e/	.	.	.	.
40F\	.	40f\	.	(40f/	.	(40f/	.	.	.	.	.	.	.	.
(40G\	.	40g\	.	40g/	.	40g/	.	.	.	.	.	.	.	.
40A\	.	40a\	.	40a/	.	40a/	.	.	.	.	.	.	.	.
40B\JJJ)	.	40b\JJJ)	.	40b/JJJ)	.	40b/JJJ)	.	.	.	.	.	.	.	.
!	!	!	!	!LO:LB:g=original	!	!	!	!	!	!	!	!	!	!
=18	=18	=18	=18	=18	=18	=18	=18	=18	=18	=18	=18	=18	=18	=18
4.c\	.	4.cc\	.	4.cc\	.	4.cc\	.	4.e/	.	4.g/	4cc\	.	4ee\	.
.	.	.	.	.	.	.	.	.	.	.	4r	.	4r	.
40G\LLL	.	40g\LLL	.	40g\LLL	.	40g\LLL	.	8e/	.	8g/	.	.	.	.
(40A\	.	(40a\	.	(40a\	.	(40a\	.	.	.	.	.	.	.	.
40B\	.	40b\	.	40b\	.	40b\	.	.	.	.	.	.	.	.
40c\	.	40cc\	.	40cc\)	.	40cc\)	.	.	.	.	.	.	.	.
40d\JJJ)	.	40dd\JJJ)	.	40dd\JJJ	.	40dd\JJJ	.	.	.	.	.	.	.	.
4.e\	.	4.ee\	.	4.ee\	.	4.ee\	.	4.g/	.	4.cc\	4cc\	.	4ee\	.
.	.	.	.	.	.	.	.	.	.	.	4r	.	4r	.
32C\LLL	.	32c\LLL	.	32cc\LLL	.	32cc\LLL	.	8g/	.	8cc\	.	.	.	.
(32D\	.	(32d\	.	(32dd\	.	(32dd\	.	.	.	.	.	.	.	.
32E\	.	32e\)	.	32ee\	.	32ee\)	.	.	.	.	.	.	.	.
32F\JJJ)	.	32f\JJJ	.	32ff\JJJ)	.	32ff\JJJ	.	.	.	.	.	.	.	.
=19	=19	=19	=19	=19	=19	=19	=19	=19	=19	=19	=19	=19	=19	=19
4.G\	.	4.g\	.	4.gg\	.	4.gg\	.	4.g/	.	4.gg\	4ee\	.	4gg\	.
.	.	.	.	.	.	.	.	.	.	.	4r	.	4r	.
!	!	!	!	!	!	!LO:N:vis=20	!	!	!	!	!	!	!	!
40E\LLL	.	40e\LLL	.	40ee\LLL	.	40ee\LLL	.	8g/	.	8gg\	.	.	.	.
(40F\	.	(40f\	.	(40ff\	.	(40ff\	.	.	.	.	.	.	.	.
40G\	.	40g\	.	40gg\	.	40gg\	.	.	.	.	.	.	.	.
40A\	.	40a\	.	40aa\)	.	40aa\	.	.	.	.	.	.	.	.
40B\JJJ)	.	40b\JJJ)	.	40bb\JJJ	.	40bb\JJJ)	.	.	.	.	.	.	.	.
!LO:LB:g=original	!	!	!	!	!	!	!	!	!	!	!	!	!	!
8c|\L	.	8cc|\L	.	8ccc\L	.	8ccc|\L	.	8cc/L	.	8ccc\L	8ccc\L	.	8ccc\L	.
8G|\J	.	8g|\J	.	8gg\J	.	8gg|\J	.	8g/J	.	8gg\J	8gg\J	.	8gg\J	.
8E|\L	.	8e|\L	.	8ee\L	.	8ee|\L	.	8e/L	.	8ee\L	8ee\L	.	8ee\L	.
8C|\J	.	8c|\J	.	8cc\J	.	8cc|\J	.	8c/J	.	8cc\J	8cc\J	.	8cc\J	.
=20	=20	=20	=20	=20	=20	=20	=20	=20	=20	=20	=20	=20	=20	=20
4GG/	.	4G/	.	4g/	.	4g/	.	4G/	.	4g/	4g/	.	4g/	.
4r	.	4r	.	4r	.	4r	.	4r	.	4r	4r	.	4r	.
2r	.	2r	.	2r	.	2r	.	2r	.	2r	2r	.	2r	.
!	!	!	!	!	!	!	!	!LO:LB:g=original	!	!	!	!	!	!
=21	=21	=21	=21	=21	=21	=21	=21	=21	=21	=21	=21	=21	=21	=21
*	*	*tremolo	*	*	*	*	*	*	*	*	*	*	*	*
*	*	*2\right	*	*	*	*	*	*	*	*	*	*	*	*
!	!	!	!LO:DY:a	!	!LO:DY:a	!	!LO:DY:a	!	!	!	!	!	!	!
1r	.	8g\L	p	4.b\	p	4.dd\	p	1r	.	0r	00r	.	00r	.
.	.	8g\	.	.	.	.	.	.	.	.	.	.	.	.
.	.	8g\	.	.	.	.	.	.	.	.	.	.	.	.
.	.	8g\J	.	8cc\	.	8ee\	.	.	.	.	.	.	.	.
.	.	8g\L	.	(8.b\L	.	(8.dd\L	.	.	.	.	.	.	.	.
.	.	8g\	.	.	.	.	.	.	.	.	.	.	.	.
.	.	.	.	16cc\Jk)	.	16ee\Jk)	.	.	.	.	.	.	.	.
.	.	8g\	.	(8.b\L	.	(8.dd\L	.	.	.	.	.	.	.	.
.	.	8g\J	.	.	.	.	.	.	.	.	.	.	.	.
.	.	.	.	16cc\Jk)	.	16ee\Jk)	.	.	.	.	.	.	.	.
!	!	!	!	!	!	!LO:LB:g=original	!	!	!	!	!	!	!	!
=22	=22	=22	=22	=22	=22	=22	=22	=22	=22	=22	=22	=22	=22	=22
!	!LO:DY:a	!	!	!	!	!	!	!	!	!	!	!	!	!
2r	f	8g\L	.	(8b\L	.	(8dd\L	.	0r	.	.	.	.	.	.
.	.	8g\	.	8a\)	.	8cc#X|\)	.	.	.	.	.	.	.	.
.	.	8g\	.	8a|\	.	8cc#|\	.	.	.	.	.	.	.	.
.	.	8g\J	.	8a|\J	.	8cc#|\J	.	.	.	.	.	.	.	.
16D\LL	.	4f#X\	.	4cc\	.	4aa\	.	.	.	.	.	.	.	.
32E\L	.	.	.	.	.	.	.	.	.	.	.	.	.	.
(32F\	.	.	.	.	.	.	.	.	.	.	.	.	.	.
32G\	.	.	.	.	.	.	.	.	.	.	.	.	.	.
32A\	.	.	.	.	.	.	.	.	.	.	.	.	.	.
32B\)	.	.	.	.	.	.	.	.	.	.	.	.	.	.
32c\JJJ	.	.	.	.	.	.	.	.	.	.	.	.	.	.
4d\	.	4r	.	4r	.	4r	.	.	.	.	.	.	.	.
!	!	!	!	!LO:LB:g=original	!	!	!	!	!	!	!	!	!	!
=23	=23	=23	=23	=23	=23	=23	=23	=23	=23	=23	=23	=23	=23	=23
1r	.	8f\L	.	4.a/	.	4.ccn\	.	.	.	1r	.	.	.	.
.	.	8f\	.	.	.	.	.	.	.	.	.	.	.	.
.	.	8f\	.	.	.	.	.	.	.	.	.	.	.	.
.	.	8f\J	.	8b/	.	8dd\	.	.	.	.	.	.	.	.
.	.	8f\L	.	8.a/L	.	(8.cc\L	.	.	.	.	.	.	.	.
.	.	8f\	.	.	.	.	.	.	.	.	.	.	.	.
.	.	.	.	16b/Jk	.	16dd\Jk)	.	.	.	.	.	.	.	.
.	.	8f\	.	8.a/L	.	(8.cc\L	.	.	.	.	.	.	.	.
.	.	8f\J	.	.	.	.	.	.	.	.	.	.	.	.
.	.	.	.	16b/Jk	.	16dd\Jk)	.	.	.	.	.	.	.	.
!	!	!	!	!	!	!	!	!	!	!LO:LB:g=original	!	!	!	!
=24	=24	=24	=24	=24	=24	=24	=24	=24	=24	=24	=24	=24	=24	=24
!	!LO:DY:a:t=for	!	!	!	!	!	!	!	!	!	!	!	!	!
2r	f	8f\L	.	(8a/L	.	(8cc\L	.	2r	.	2r	.	.	.	.
.	.	8f\	.	8g/)	.	8b\)	.	.	.	.	.	.	.	.
.	.	8f\	.	8g|/	.	8b|\	.	.	.	.	.	.	.	.
.	.	8f\J	.	8g|/J	.	8b|\J	.	.	.	.	.	.	.	.
16GG/LL	.	4d\	.	4b/	.	4gg\	.	8r	.	8r	.	.	.	.
!	!	!	!	!	!	!	!	!	!LO:DY:a	!	!	!	!	!
32AA/L	.	.	.	.	.	.	.	.	f	.	.	.	.	.
32BB/	.	.	.	.	.	.	.	.	.	.	.	.	.	.
32C/	.	.	.	.	.	.	.	8g/	.	8g/	.	.	.	.
32D/	.	.	.	.	.	.	.	.	.	.	.	.	.	.
32E/	.	.	.	.	.	.	.	.	.	.	.	.	.	.
32F#X/JJJ	.	.	.	.	.	.	.	.	.	.	.	.	.	.
!LO:N:vis=8	!	!	!	!	!	!	!	!	!	!	!	!	!	!
4G\	.	4r	.	4r	.	4r	.	4g/	.	4g/	.	.	.	.
!	!	!LO:LB:g=original	!	!	!	!	!	!	!	!	!	!	!	!
=25	=25	=25	=25	=25	=25	=25	=25	=25	=25	=25	=25	=25	=25	=25
0r	.	8c/L	.	8e/L	.	8a\L	.	0r	.	0r	0r	.	0r	.
.	.	8c/	.	8e/	.	(16cc\L	.	.	.	.	.	.	.	.
.	.	.	.	.	.	16b\JJ)	.	.	.	.	.	.	.	.
.	.	8c/	.	8e/	.	8a\L	.	.	.	.	.	.	.	.
.	.	8c/J	.	8e/J	.	8a\J	.	.	.	.	.	.	.	.
.	.	8c/L	.	8e/L	.	8a|\L	.	.	.	.	.	.	.	.
.	.	8c/	.	8e/	.	8a|\J	.	.	.	.	.	.	.	.
.	.	8c/	.	8e/	.	8a|\L	.	.	.	.	.	.	.	.
.	.	8c/J	.	8e/J	.	8a|\J	.	.	.	.	.	.	.	.
=26	=26	=26	=26	=26	=26	=26	=26	=26	=26	=26	=26	=26	=26	=26
.	.	8c/L	.	8e/L	.	8a\L	.	.	.	.	.	.	.	.
.	.	8c/	.	8e/	.	16cc\L	.	.	.	.	.	.	.	.
.	.	.	.	.	.	16b\JJ	.	.	.	.	.	.	.	.
.	.	8c/	.	8e/	.	8a/L	.	.	.	.	.	.	.	.
.	.	8c/J	.	8e/J	.	8a/J	.	.	.	.	.	.	.	.
.	.	8c/L	.	8e/L	.	8ee|\L	.	.	.	.	.	.	.	.
.	.	8c/	.	8e/	.	(8cc\	.	.	.	.	.	.	.	.
.	.	8c/	.	8e/	.	8b\)	.	.	.	.	.	.	.	.
.	.	8c/J	.	8e/J	.	8a\J	.	.	.	.	.	.	.	.
=27	=27	=27	=27	=27	=27	=27	=27	=27	=27	=27	=27	=27	=27	=27
1r	.	8c/L	.	8e/L	.	8ee|\L	.	1r	.	1r	1r	.	1r	.
.	.	8c/	.	8e/	.	(8cc\	.	.	.	.	.	.	.	.
.	.	8c/	.	8e/	.	8b\)	.	.	.	.	.	.	.	.
.	.	8c/J	.	8e/J	.	8a\J	.	.	.	.	.	.	.	.
.	.	8d/L	.	8e/L	.	(8cc\L	.	.	.	.	.	.	.	.
.	.	8d/	.	8c/	.	8a\J)	.	.	.	.	.	.	.	.
!	!	!	!	!	!	!LO:LB:g=original	!	!	!	!	!	!	!	!
.	.	8d/	.	8B/	.	8g/L	.	.	.	.	.	.	.	.
.	.	8d/J	.	8A/J	.	8f#X/J	.	.	.	.	.	.	.	.
*	*	*Xtremolo	*	*	*	*	*	*	*	*	*	*	*	*
=28	=28	=28	=28	=28	=28	=28	=28	=28	=28	=28	=28	=28	=28	=28
!	!LO:DY:a:t=for	!	!	!	!	!LO:SIC:v:s=8qf#/	!	!	!	!	!	!	!	!
.	f	.	.	.	.	8qqf/	.	.	.	.	.	.	.	.
!	!	!	!LO:DY:a:t=for.	!	!LO:DY:a:t=for	!	!	!	!	!	!	!	!	!
4G\	.	16G/LL	f	16B/LL	f	4g/	.	4g/	.	4dd\	4gg\	.	4bb\	.
.	.	16B/	.	16d/	.	.	.	.	.	.	.	.	.	.
.	.	16G/	.	16B/	.	.	.	.	.	.	.	.	.	.
.	.	16B/JJ	.	16d/JJ	.	.	.	.	.	.	.	.	.	.
!	!	!	!	!LO:LB:g=original	!	!	!LO:DY:a	!	!	!	!	!	!	!
8r	.	16G/LL	.	16B/LL	.	8r	f	4g/	.	4dd\	4gg\	.	4bb\	.
.	.	16B/	.	16d/	.	.	.	.	.	.	.	.	.	.
*tuplet	*	*	*	*	*	*	*	*	*	*	*	*	*	*
!LO:TUP:a	!	!	!	!	!	!	!	!	!	!	!	!	!	!
!LO:TX:t=P:problem=klamra łukowa	!	!	!	!	!	!	!	!	!	!	!	!	!	!
24D\LL	.	16G/	.	16B/	.	24d/LL	.	.	.	.	.	.	.	.
24E\	.	.	.	.	.	24e/	.	.	.	.	.	.	.	.
.	.	16B/JJ	.	16d/JJ	.	.	.	.	.	.	.	.	.	.
24F#X\JJ	.	.	.	.	.	24f#X/JJ	.	.	.	.	.	.	.	.
!LO:LB:g=original	!	!	!	!	!	!	!	!	!	!	!	!	!	!
8G\L	.	16G/LL	.	16B/LL	.	8g|/L	.	4g/	.	4dd\	4gg\	.	4bb\	.
.	.	16B/	.	16d/	.	.	.	.	.	.	.	.	.	.
8D\J	.	16G/	.	16B/	.	8b|/J	.	.	.	.	.	.	.	.
.	.	16B/JJ	.	16d/JJ	.	.	.	.	.	.	.	.	.	.
8BB/L	.	16G/LL	.	16B/LL	.	8dd|\L	.	4g/	.	4dd\	4gg\	.	4bb\	.
.	.	16B/	.	16d/	.	.	.	.	.	.	.	.	.	.
8GG/J	.	16G/	.	16B/	.	8gg|\J	.	.	.	.	.	.	.	.
.	.	16B/JJ	.	16d/JJ	.	.	.	.	.	.	.	.	.	.
=29	=29	=29	=29	=29	=29	=29	=29	=29	=29	=29	=29	=29	=29	=29
!LO:TX:t=P:problem=mixed beam	!	!	!	!	!	!	!	!	!	!	!	!	!	!
8GG/L	.	16G/LL	.	16B/LL	.	8bb\L	.	4g/	.	4dd\	4gg\	.	4bb\	.
.	.	16B/	.	16d/	.	.	.	.	.	.	.	.	.	.
8G\J	.	16G/	.	16B/	.	8ddd\J	.	.	.	.	.	.	.	.
.	.	16B/JJ	.	16d/JJ	.	.	.	.	.	.	.	.	.	.
!LO:TX:t=P:problem=mixed beam	!	!	!	!	!	!	!	!	!	!	!	!	!	!
8GG/L	.	16G/LL	.	16B/LL	.	8r	.	4g/	.	4dd\	4gg\	.	4bb\	.
.	.	16B/	.	16d/	.	.	.	.	.	.	.	.	.	.
8G\J	.	16G/	.	16B/	.	8bb\	.	.	.	.	.	.	.	.
.	.	16B/JJ	.	16d/JJ	.	.	.	.	.	.	.	.	.	.
!LO:TX:t=P:problem=mixed beam	!	!	!	!	!	!	!	!	!	!	!	!	!	!
8D/L	.	16A/LL	.	16c/LL	.	8ccc|\L	.	4dd\	.	4dd\	4ff#X\	.	4aa\	.
.	.	16F#X/	.	16d/	.	.	.	.	.	.	.	.	.	.
8d\J	.	16A/	.	16c/	.	8aa|\J	.	.	.	.	.	.	.	.
.	.	16F#/JJ	.	16d/JJ	.	.	.	.	.	.	.	.	.	.
!LO:TX:t=P:problem=mixed beam	!	!	!	!	!	!	!	!	!	!	!	!	!	!
8D/L	.	16A/LL	.	16c/LL	.	8ff#X|\L	.	4dd\	.	4dd\	4ff#\	.	4aa\	.
.	.	16F#/	.	16d/	.	.	.	.	.	.	.	.	.	.
8d\J	.	16A/	.	16c/	.	8dd|\J	.	.	.	.	.	.	.	.
.	.	16F#/JJ	.	16d/JJ	.	.	.	.	.	.	.	.	.	.
!	!	!	!	!	!	!	!	!	!	!	!LO:LB:g=original	!	!LO:LB:g=original	!
=30	=30	=30	=30	=30	=30	=30	=30	=30	=30	=30	=30	=30	=30	=30
4G\	.	16G/LL	.	16B/LL	.	4gg\	.	4g/	.	4dd\	4gg\	.	4bb\	.
.	.	16B/	.	16d/	.	.	.	.	.	.	.	.	.	.
.	.	16G/	.	16B/	.	.	.	.	.	.	.	.	.	.
.	.	16B/JJ	.	16d/JJ	.	.	.	.	.	.	.	.	.	.
8r	.	16G/LL	.	16B/LL	.	8r	.	4g/	.	4dd\	4gg\	.	4bb\	.
.	.	16B/	.	16d/	.	.	.	.	.	.	.	.	.	.
!LO:TUP:a	!	!	!	!	!	!	!	!	!	!	!	!	!	!
!LO:TX:t=P:problem=klamra łukowa	!	!	!	!	!	!	!	!	!	!	!	!	!	!
(24D\LL	.	16G/	.	16B/	.	24d/LL	.	.	.	.	.	.	.	.
24E\	.	.	.	.	.	24e/	.	.	.	.	.	.	.	.
.	.	16B/JJ	.	16d/JJ	.	.	.	.	.	.	.	.	.	.
24F#X\JJ)	.	.	.	.	.	24f#X/JJ	.	.	.	.	.	.	.	.
8G\L	.	16G/LL	.	16B/LL	.	8g/L	.	4g/	.	4dd\	4gg\	.	4bb\	.
.	.	16B/	.	16d/	.	.	.	.	.	.	.	.	.	.
8D\J	.	16G/	.	16B/	.	8b/J	.	.	.	.	.	.	.	.
.	.	16B/JJ	.	16d/JJ	.	.	.	.	.	.	.	.	.	.
8BB/L	.	16G/LL	.	16B/LL	.	8dd\L	.	4g/	.	4dd\	4gg\	.	4bb\	.
.	.	16B/	.	16d/	.	.	.	.	.	.	.	.	.	.
8GG/J	.	16G/	.	16B/	.	8gg\J	.	.	.	.	.	.	.	.
.	.	16B/JJ	.	16d/JJ	.	.	.	.	.	.	.	.	.	.
!	!	!LO:LB:g=original	!	!	!	!	!	!	!	!	!	!	!	!
=31	=31	=31	=31	=31	=31	=31	=31	=31	=31	=31	=31	=31	=31	=31
!LO:TX:t=P:problem=mixed beam	!	!	!	!	!	!	!	!	!	!	!	!	!	!
8GG/L	.	16G/LL	.	16B/LL	.	8bb\L	.	4g/	.	4dd\	4gg\	.	4bb\	.
.	.	16B/	.	16d/	.	.	.	.	.	.	.	.	.	.
8G\J	.	16G/	.	16B/	.	8ddd\J	.	.	.	.	.	.	.	.
.	.	16B/JJ	.	16d/JJ	.	.	.	.	.	.	.	.	.	.
!LO:TX:t=P:problem=mixed beam	!	!	!	!LO:LB:g=original	!	!	!	!	!	!	!	!	!	!
8GG/L	.	16G/LL	.	16B/LL	.	8r	.	4g/	.	4dd\	4gg\	.	4bb\	.
.	.	16B/	.	16d/	.	.	.	.	.	.	.	.	.	.
8G\J	.	16G/	.	16B/	.	8bb\	.	.	.	.	.	.	.	.
.	.	16B/JJ	.	16d/JJ	.	.	.	.	.	.	.	.	.	.
!LO:TX:t=P:problem=mixed beam	!	!	!	!	!	!	!	!	!	!	!	!	!	!
8D/L	.	16A/LL	.	16c/LL	.	8ccc\L	.	4dd\	.	4dd\	4ff#X\	.	4aa\	.
.	.	16F#X/	.	16d/	.	.	.	.	.	.	.	.	.	.
8d\J	.	16A/	.	16c/	.	8aa\	.	.	.	.	.	.	.	.
.	.	16F#/JJ	.	16d/JJ	.	.	.	.	.	.	.	.	.	.
!LO:TX:t=P:problem=mixed beam	!	!	!	!	!	!	!	!	!	!	!	!	!	!
8D/L	.	16A/LL	.	16c/LL	.	8gg\	.	4dd\	.	4dd\	4ff#\	.	4aa\	.
.	.	16F#/	.	16d/	.	.	.	.	.	.	.	.	.	.
8d\J	.	16A/	.	16c/	.	8ff#X\J	.	.	.	.	.	.	.	.
.	.	16F#/JJ	.	16d/JJ	.	.	.	.	.	.	.	.	.	.
=32	=32	=32	=32	=32	=32	=32	=32	=32	=32	=32	=32	=32	=32	=32
4G\	.	4G/	.	4d/ 4B/	.	4gg/ 4b/ 4d/	.	4g/	.	4dd\	4gg\	.	4bb\	.
16G|\LL	.	16g\LL	.	16g/LL	.	4r	.	4r	.	4r	4r	.	4r	.
16F#X|\	.	16f#X\	.	16f#X/	.	.	.	.	.	.	.	.	.	.
16G|\	.	16g\	.	16g/	.	.	.	.	.	.	.	.	.	.
16A|\JJ	.	16a\JJ	.	16a/JJ	.	.	.	.	.	.	.	.	.	.
16B|\LL	.	16b\LL	.	16b\LL	.	4r	.	4r	.	4r	4r	.	4r	.
16A|\	.	16a\	.	16a\	.	.	.	.	.	.	.	.	.	.
16B|\	.	16b\	.	16b\	.	.	.	.	.	.	.	.	.	.
16c|\JJ	.	16cc\JJ	.	16cc\JJ	.	.	.	.	.	.	.	.	.	.
!	!	!	!	!	!	!	!	!	!	!	!LO:SIC:v:s=4ff#\	!	!	!
16d|\LL	.	16dd\LL	.	16dd\LL	.	8r	.	4dd\	.	4dd\	4ff\	.	4aa\	.
16c|\	.	16cc\	.	16cc\	.	.	.	.	.	.	.	.	.	.
16B|\	.	16b\	.	16b\	.	8ff#X/ 8a/ 8d/	.	.	.	.	.	.	.	.
16A|\JJ	.	16a\JJ	.	16a\JJ	.	.	.	.	.	.	.	.	.	.
!LO:LB:g=original	!	!	!	!	!	!LO:LB:g=original	!	!LO:LB:g=original	!	!	!	!	!	!
=33	=33	=33	=33	=33	=33	=33	=33	=33	=33	=33	=33	=33	=33	=33
4G\	.	4g\	.	4g/ 4B/	.	4gg/ 4b/ 4d/	.	4g/	.	4dd\	4gg\	.	4bb\	.
16G|\LL	.	16g\LL	.	16g/LL	.	4r	.	4r	.	4r	4r	.	4r	.
!LO:SIC:v:s=16F#|\	!	!LO:SIC:v:s=16f#\	!	!	!	!	!	!	!	!	!	!	!	!
16F|\	.	16f\	.	16f#X/	.	.	.	.	.	.	.	.	.	.
16G|\	.	16g\	.	16g/	.	.	.	.	.	.	.	.	.	.
16A|\JJ	.	16a\JJ	.	16a/JJ	.	.	.	.	.	.	.	.	.	.
16B|\LL	.	16b\LL	.	16b\LL	.	4r	.	4r	.	4r	4r	.	4r	.
16A|\	.	16a\	.	16a\	.	.	.	.	.	.	.	.	.	.
16B|\	.	16b\	.	16b\	.	.	.	.	.	.	.	.	.	.
16c|\JJ	.	16cc\JJ	.	16cc\JJ	.	.	.	.	.	.	.	.	.	.
!	!	!	!	!	!	!	!	!	!	!	!LO:SIC:v:s=4ff#\	!	!	!
16d|\LL	.	16dd\LL	.	16dd\LL	.	8r	.	4dd\	.	4dd\	4ff\	.	4aa\	.
16c|\	.	16cc\	.	16cc\	.	.	.	.	.	.	.	.	.	.
16B|\	.	16b\	.	16b\	.	8ff#X/ 8a/ 8d/	.	.	.	.	.	.	.	.
16A|\JJ	.	16a\JJ	.	16a\JJ	.	.	.	.	.	.	.	.	.	.
!	!	!	!	!	!	!	!	!	!	!LO:LB:g=original	!	!	!	!
=34	=34	=34	=34	=34	=34	=34	=34	=34	=34	=34	=34	=34	=34	=34
4G\	.	4g\	.	4b/ 4d/	.	4gg/ 4b/ 4d/	.	4g/	.	4dd\	4gg\	.	4bb\	.
4G\	.	4d\	.	4b/ 4d/	.	4gg/ 4b/ 4d/	.	4g/	.	4dd\	4gg\	.	4bb\	.
4G\	.	4d\	.	4b/ 4d/	.	4gg/ 4b/ 4d/	.	4g/	.	4dd\	4gg\	.	4bb\	.
4r	.	4r	.	4r	.	4r	.	4r	.	4r	4r	.	4r	.
!	!	!	!	!LO:LB:g=original	!	!	!	!	!	!	!	!	!	!
=35:|!|:	=35:|!|:	=35:|!|:	=35:|!|:	=35:|!|:	=35:|!|:	=35:|!|:	=35:|!|:	=35:|!|:	=35:|!|:	=35:|!|:	=35:|!|:	=35:|!|:	=35:|!|:	=35:|!|:
*>B	*	*>B	*	*>B	*	*>B	*	*>B	*	*>B	*>B	*	*>B	*
!	!LO:DY:a	!	!LO:DY:a	!	!LO:DY:a:t=for	!	!LO:DY:a	!	!	!	!	!	!	!LO:DY:a:rj
4G\	f	8B/	f	4g/	f	8gg/ 8b/ 8d/	f	4g/	.	4dd\	4b\	.	4gg\	f
.	.	4B/	.	.	.	4g/	.	.	.	.	.	.	.	.
*	*	*	*	*	*	*	*	*	*	*2\right	*2\right	*	*2\right	*
16G|\LL	.	.	.	16g/LL	.	.	.	2g/	.	2dd\	2b\	.	2gg\	.
16F#X|\	.	.	.	16f#X/	.	.	.	.	.	.	.	.	.	.
16G|\	.	4B/	.	16g/	.	4g/	.	.	.	.	.	.	.	.
16A|\JJ	.	.	.	16a/JJ	.	.	.	.	.	.	.	.	.	.
16B\LL	.	.	.	16b\LL	.	.	.	.	.	.	.	.	.	.
16A\	.	.	.	16a\	.	.	.	.	.	.	.	.	.	.
16B\	.	4B/	.	16b\	.	4g/	.	.	.	.	.	.	.	.
16c\JJ	.	.	.	16cc\JJ	.	.	.	.	.	.	.	.	.	.
16d\LL	.	.	.	16dd\LL	.	.	.	4g/	.	4dd\	4b\	.	4gg\	.
16c\	.	.	.	16cc\	.	.	.	.	.	.	.	.	.	.
16B\	.	8B/	.	16b\	.	[>8g/	.	.	.	.	.	.	.	.
16A\JJ	.	.	.	16a\JJ	.	.	.	.	.	.	.	.	.	.
=36	=36	=36	=36	=36	=36	=36	=36	=36	=36	=36	=36	=36	=36	=36
!	!LO:DY:a	!	!LO:DY:a	!	!LO:DY:a	!	!LO:DY:a	!	!	!	!	!	!	!
4G\	p	8B/	p	4g/	p	8g/]	p	1r	.	1r	1r	.	1r	.
.	.	4B/	.	.	.	4g/	.	.	.	.	.	.	.	.
16G\LL	.	.	.	16g/LL	.	.	.	.	.	.	.	.	.	.
!	!	!	!	!LO:SIC:v:s=16f#/	!	!	!	!	!	!	!	!	!	!
16F#X\	.	.	.	16f/	.	.	.	.	.	.	.	.	.	.
16G\	.	4B/	.	16g/	.	4g/	.	.	.	.	.	.	.	.
16A\JJ	.	.	.	16a/JJ	.	.	.	.	.	.	.	.	.	.
16B\LL	.	.	.	16b\LL	.	.	.	.	.	.	.	.	.	.
16A\	.	.	.	16a\	.	.	.	.	.	.	.	.	.	.
16B\	.	4B/	.	16b\	.	4g/	.	.	.	.	.	.	.	.
16c\JJ	.	.	.	16cc\JJ	.	.	.	.	.	.	.	.	.	.
16d\LL	.	.	.	16dd\LL	.	.	.	.	.	.	.	.	.	.
16B\	.	.	.	16b\	.	.	.	.	.	.	.	.	.	.
16A\	.	8B/	.	16a\	.	8g/	.	.	.	.	.	.	.	.
16G\JJ	.	.	.	16g\JJ	.	.	.	.	.	.	.	.	.	.
!LO:LB:g=original	!	!LO:LB:g=original	!	!	!	!	!	!	!	!	!	!	!	!
=37	=37	=37	=37	=37	=37	=37	=37	=37	=37	=37	=37	=37	=37	=37
!	!LO:DY:a	!	!LO:DY:a:t=f	!	!LO:DY:a:t=for	!	!LO:DY:a	!	!	!	!	!	!	!LO:DY:a:rj
4A\	f	8c/	f	4a/	f	8f#X/	f	4dd\	.	4dd\	4ff#X\	.	4aa\	f
.	.	4c/	.	.	.	4f#/	.	.	.	.	.	.	.	.
*	*	*	*	*	*	*	*	*2\right	*	*	*	*	*	*
16A\LL	.	.	.	16a/LL	.	.	.	2dd\	.	2dd\	2ff#\	.	2aa\	.
16G\	.	.	.	16g/	.	.	.	.	.	.	.	.	.	.
16A\	.	4c/	.	16a/	.	4f#/	.	.	.	.	.	.	.	.
16B\JJ	.	.	.	16b/JJ	.	.	.	.	.	.	.	.	.	.
16c\LL	.	.	.	16cc\LL	.	.	.	.	.	.	.	.	.	.
16B\	.	.	.	16b\	.	.	.	.	.	.	.	.	.	.
16c\	.	4c/	.	16cc\	.	4f#/	.	.	.	.	.	.	.	.
16d\JJ	.	.	.	16dd\JJ	.	.	.	.	.	.	.	.	.	.
16c\LL	.	.	.	16cc/LL	.	.	.	4dd\	.	4dd\	4ff#\	.	4aa\	.
16A\	.	.	.	16a/	.	.	.	.	.	.	.	.	.	.
16G\	.	8c/	.	16g/	.	8f#/	.	.	.	.	.	.	.	.
16F#X\JJ	.	.	.	16f#X/JJ	.	.	.	.	.	.	.	.	.	.
=38	=38	=38	=38	=38	=38	=38	=38	=38	=38	=38	=38	=38	=38	=38
!	!LO:DY:a	!	!LO:DY:a	!	!LO:DY:a	!LO:SIC:v:s=8f#/	!LO:DY:a	!	!	!	!	!	!	!
4A\	p	8c\	p	4a\	p	8f/	p	1r	.	1r	1r	.	1r	.
!	!	!	!	!	!	!LO:SIC:v:s=4f#/	!	!	!	!	!	!	!	!
.	.	4c\	.	.	.	4f/	.	.	.	.	.	.	.	.
16A\LL	.	.	.	16a\LL	.	.	.	.	.	.	.	.	.	.
16G\	.	.	.	16g\	.	.	.	.	.	.	.	.	.	.
!	!	!	!	!	!	!LO:SIC:v:s=4f#/	!	!	!	!	!	!	!	!
16A\	.	4c\	.	16a\	.	4f/	.	.	.	.	.	.	.	.
16B\JJ	.	.	.	16b\JJ	.	.	.	.	.	.	.	.	.	.
!	!	!	!	!LO:LB:g=original	!	!	!	!	!	!	!	!	!	!
16c\LL	.	.	.	16cc/LL	.	.	.	.	.	.	.	.	.	.
16B\	.	.	.	16b/	.	.	.	.	.	.	.	.	.	.
!	!	!	!	!	!	!LO:SIC:v:s=4f#/	!	!	!	!	!	!	!	!
16A\	.	4c\	.	16a/	.	4f/	.	.	.	.	.	.	.	.
16G\JJ	.	.	.	16g/JJ	.	.	.	.	.	.	.	.	.	.
16F#X\LL	.	.	.	16f#X/LL	.	.	.	.	.	.	.	.	.	.
16E\	.	.	.	16e/	.	.	.	.	.	.	.	.	.	.
!	!	!	!	!	!	!LO:SIC:v:s=8f#/	!	!	!	!	!	!	!	!
16D\	.	8c\	.	16d/	.	8f/	.	.	.	.	.	.	.	.
16C\JJ	.	.	.	16c/JJ	.	.	.	.	.	.	.	.	.	.
!	!	!	!	!	!	!	!	!	!	!	!LO:LB:g=original	!	!	!
=39	=39	=39	=39	=39	=39	=39	=39	=39	=39	=39	=39	=39	=39	=39
!	!LO:DY:a:rj	!	!LO:DY:a	!	!LO:DY:a:t=for	!	!LO:DY:a	!	!	!	!	!	!	!LO:DY:a:rj
16BB/LL	f	8d\	f	16B/LL	f	8fn/	f	4dd\	.	4dd\	4ffn\	.	4bb\	f
16AA/	.	.	.	16A/	.	.	.	.	.	.	.	.	.	.
16BB/	.	4d\	.	16B/	.	4f/	.	.	.	.	.	.	.	.
16C/JJ	.	.	.	16c/JJ	.	.	.	.	.	.	.	.	.	.
16D/LL	.	.	.	16d/LL	.	.	.	2dd\	.	2dd\	2ff\	.	2bb\	.
16C/	.	.	.	16c/	.	.	.	.	.	.	.	.	.	.
16D/	.	4d\	.	16d/	.	4f/	.	.	.	.	.	.	.	.
16E/JJ	.	.	.	16e/JJ	.	.	.	.	.	.	.	.	.	.
16Fn/LL	.	.	.	16fn/LL	.	.	.	.	.	.	.	.	.	.
16E/	.	.	.	16e/	.	.	.	.	.	.	.	.	.	.
16D/	.	4d\	.	16d/	.	4f/	.	.	.	.	.	.	.	.
16C/JJ	.	.	.	16c/JJ	.	.	.	.	.	.	.	.	.	.
16C/LL	.	.	.	16c/LL	.	.	.	4dd\	.	4dd\	4ff\	.	4bb\	.
16BB/	.	.	.	16B/	.	.	.	.	.	.	.	.	.	.
16AA/	.	8d\	.	16A/	.	8f/	.	.	.	.	.	.	.	.
16GG/JJ	.	.	.	16G/JJ	.	.	.	.	.	.	.	.	.	.
!	!	!	!	!	!	!LO:LB:g=original	!	!	!	!	!	!	!LO:LB:g=original	!
=40	=40	=40	=40	=40	=40	=40	=40	=40	=40	=40	=40	=40	=40	=40
!	!LO:DY:a	!	!LO:DY:a	!	!LO:DY:a	!	!LO:DY:a	!	!	!	!	!	!	!
16BB/LL	p	8d\	p	16B/LL	p	8f/	p	1r	.	1r	1r	.	1r	.
16AA/	.	.	.	16A/	.	.	.	.	.	.	.	.	.	.
16BB/	.	4d\	.	16B/	.	4f/	.	.	.	.	.	.	.	.
16C/JJ	.	.	.	16c/JJ	.	.	.	.	.	.	.	.	.	.
16D/LL	.	.	.	16d/LL	.	.	.	.	.	.	.	.	.	.
16C/	.	.	.	16c/	.	.	.	.	.	.	.	.	.	.
16D/	.	4d\	.	16d/	.	4f/	.	.	.	.	.	.	.	.
16E/JJ	.	.	.	16e/JJ	.	.	.	.	.	.	.	.	.	.
!LO:LB:g=original	!	!	!	!	!	!	!	!	!	!	!	!	!	!
16Fn/LL	.	.	.	16f/LL	.	.	.	.	.	.	.	.	.	.
16E/	.	.	.	16e/	.	.	.	.	.	.	.	.	.	.
16D/	.	4d\	.	16d/	.	4f/	.	.	.	.	.	.	.	.
16C/JJ	.	.	.	16c/JJ	.	.	.	.	.	.	.	.	.	.
16C/LL	.	.	.	16c/LL	.	.	.	.	.	.	.	.	.	.
16BB/	.	.	.	16B/	.	.	.	.	.	.	.	.	.	.
16AA/	.	8d\	.	16A/	.	8f/	.	.	.	.	.	.	.	.
16GG#X/JJ	.	.	.	16G#X/JJ	.	.	.	.	.	.	.	.	.	.
=41	=41	=41	=41	=41	=41	=41	=41	=41	=41	=41	=41	=41	=41	=41
!	!LO:DY:a	!	!LO:DY:a	!	!LO:DY:a	!	!LO:DY:a	!	!	!	!	!	!	!
16AA/LL	f	8c\	f	16A/LL	f	8e/	f	4e/	.	4e/	4cc\	.	4aa\	.
!LO:SIC:v:s=16GG#/	!	!	!	!	!	!	!	!	!	!	!	!	!	!
16GG/	.	.	.	16G#X/	.	.	.	.	.	.	.	.	.	.
16AA/	.	4c\	.	16A/	.	4e/	.	.	.	.	.	.	.	.
16BB/JJ	.	.	.	16B/JJ	.	.	.	.	.	.	.	.	.	.
!	!	!	!	!LO:LB:g=original	!	!	!	!	!	!	!	!	!	!
16C/LL	.	.	.	16c/LL	.	.	.	2e/	.	2e/	2cc\	.	2aa\	.
16BB/	.	.	.	16B/	.	.	.	.	.	.	.	.	.	.
16C/	.	4c\	.	16c/	.	4e/	.	.	.	.	.	.	.	.
16D/JJ	.	.	.	16d/JJ	.	.	.	.	.	.	.	.	.	.
16E/LL	.	.	.	16e/LL	.	.	.	.	.	.	.	.	.	.
16D/	.	.	.	16d/	.	.	.	.	.	.	.	.	.	.
16C/	.	4c\	.	16c/	.	4e/	.	.	.	.	.	.	.	.
16D/JJ	.	.	.	16d/JJ	.	.	.	.	.	.	.	.	.	.
16E/LL	.	.	.	16e/LL	.	.	.	4e/	.	4e/	4cc\	.	4aa\	.
16D/	.	.	.	16d/	.	.	.	.	.	.	.	.	.	.
16C/	.	8c\	.	16c/	.	8e/	.	.	.	.	.	.	.	.
16BB/JJ	.	.	.	16B/JJ	.	.	.	.	.	.	.	.	.	.
!	!	!	!	!	!	!	!	!LO:LB:g=original	!	!	!	!	!	!
=42	=42	=42	=42	=42	=42	=42	=42	=42	=42	=42	=42	=42	=42	=42
16AA/LL	.	8c/	.	16A/LL	.	8e/	.	4e/	.	4e/	4cc\	.	4aa\	.
16GG#X/	.	.	.	16G#X/	.	.	.	.	.	.	.	.	.	.
16AA/	.	4B/	.	16A/	.	4e/	.	.	.	.	.	.	.	.
16BB/JJ	.	.	.	16B/JJ	.	.	.	.	.	.	.	.	.	.
16C/LL	.	.	.	16c/LL	.	.	.	4e/	.	4e/	4cc\	.	4aa\	.
16BB/	.	.	.	16B/	.	.	.	.	.	.	.	.	.	.
16C/	.	8c/	.	16c/	.	8e/	.	.	.	.	.	.	.	.
16D/JJ	.	.	.	16d/JJ	.	.	.	.	.	.	.	.	.	.
4E/	.	4B/	.	4e/	.	4e/	.	4e/	.	4e/	4ee\	.	4gg#X\	.
4r	.	4r	.	4r	.	4r	.	4r	.	4r	4r	.	4r	.
!	!	!	!	!	!	!	!	!	!	!LO:LB:g=original	!	!	!	!
=43	=43	=43	=43	=43	=43	=43	=43	=43	=43	=43	=43	=43	=43	=43
!	!LO:DY:a	!	!LO:DY:a	!	!LO:DY:a	!	!LO:DY:a	!	!	!	!	!LO:DY:a:rj	!	!LO:DY:a:rj
8r	f	8r	f	8e/ 8c/	f	8a/	f	4e/	.	4e/	4cc\	f	4aa\	f
8AA/	.	8A/	.	4e/ 4c/	.	4a/	.	.	.	.	.	.	.	.
8C\L	.	8c\L	.	.	.	.	.	2e/	.	2e/	2cc\	.	2aa\	.
8E\J	.	8e\J	.	4e/ 4c/	.	4a/	.	.	.	.	.	.	.	.
8A\L	.	8a\L	.	.	.	.	.	.	.	.	.	.	.	.
8c\J	.	8cc\J	.	4e/ 4c/	.	4a/	.	.	.	.	.	.	.	.
8e\	.	8ee\	.	.	.	.	.	4e/	.	4e/	4cc\	.	4aa\	.
8r	.	8r	.	8e/ 8c/	.	8a/	.	.	.	.	.	.	.	.
=44	=44	=44	=44	=44	=44	=44	=44	=44	=44	=44	=44	=44	=44	=44
!	!LO:DY:a	!	!LO:DY:a:t=p	!	!LO:DY:a	!	!LO:DY:a	!	!	!	!	!	!	!
8r	p	8r	p	8e/ 8c/	p	8a/	p	1r	.	1r	1r	.	1r	.
8AA/	.	8A/	.	4e/ 4c/	.	4a/	.	.	.	.	.	.	.	.
8C\L	.	8c/L	.	.	.	.	.	.	.	.	.	.	.	.
8E\J	.	8e/J	.	4e/ 4c/	.	4a/	.	.	.	.	.	.	.	.
!LO:LB:g=original	!	!	!	!	!	!	!	!	!	!	!	!	!	!
8A\L	.	8a\L	.	.	.	.	.	.	.	.	.	.	.	.
8c\J	.	8cc\J	.	4e/ 4c/	.	4a/	.	.	.	.	.	.	.	.
8e\	.	8ee\	.	.	.	.	.	.	.	.	.	.	.	.
8r	.	8r	.	8e/ 8c/	.	8a/	.	.	.	.	.	.	.	.
!	!	!LO:LB:g=original	!	!	!	!	!	!	!	!	!	!	!	!
=45	=45	=45	=45	=45	=45	=45	=45	=45	=45	=45	=45	=45	=45	=45
!	!LO:DY:a:t=fo&colon;	!	!LO:DY:a:t=for	!	!LO:DY:a:t=for	!	!LO:DY:a	!	!	!	!	!LO:DY:a	!	!
8r	f	8c#X\	f	8g/ 8c#X/	f	8b-X\	f	4e/	.	4e/	4cc#X\	f	4bb-X\	.
8AA/	.	4c#\	.	4g/ 4c#/	.	4b-\	.	.	.	.	.	.	.	.
8BB-X/L	.	.	.	.	.	.	.	2e/	.	2e/	2cc#\	.	2bb-\	.
8C#X/J	.	4c#\	.	4g/ 4c#/	.	4b-\	.	.	.	.	.	.	.	.
8E\L	.	.	.	.	.	.	.	.	.	.	.	.	.	.
8G\J	.	4c#\	.	4g/ 4c#/	.	4b-\	.	.	.	.	.	.	.	.
8B-X\	.	.	.	.	.	.	.	4e/	.	4e/	4cc#\	.	4bb-\	.
8r	.	8c#\	.	8g/ 8c#/	.	8b-\	.	.	.	.	.	.	.	.
!	!	!	!	!LO:LB:g=original	!	!	!	!	!	!	!	!	!	!
=46	=46	=46	=46	=46	=46	=46	=46	=46	=46	=46	=46	=46	=46	=46
!	!LO:DY:a	!LO:SIC:v:s=8c#\	!LO:DY:a	!	!LO:DY:a	!LO:SIC:v:s=8b-\	!LO:DY:a	!	!	!	!	!	!	!
8r	p	8c\	p	8g/ 8c#X/	p	8b\	p	1r	.	1r	1r	.	1r	.
!	!	!LO:SIC:v:s=4c#\	!	!	!	!LO:SIC:v:s=4b-\	!	!	!	!	!	!	!	!
8AA/	.	4c\	.	4g/ 4c#/	.	4b\	.	.	.	.	.	.	.	.
8BB-X/L	.	.	.	.	.	.	.	.	.	.	.	.	.	.
!	!	!LO:SIC:v:s=4c#\	!	!	!	!LO:SIC:v:s=4b-\	!	!	!	!	!	!	!	!
8C#X/J	.	4c\	.	4g/ 4c#/	.	4b\	.	.	.	.	.	.	.	.
8E\L	.	.	.	.	.	.	.	.	.	.	.	.	.	.
!	!	!LO:SIC:v:s=4c#\	!	!	!	!LO:SIC:v:s=4b-\	!	!	!	!	!	!	!	!
8G\J	.	4c\	.	4g/ 4c#/	.	4b\	.	.	.	.	.	.	.	.
8B-X\	.	.	.	.	.	.	.	.	.	.	.	.	.	.
!	!	!LO:SIC:v:s=8c#\	!	!	!	!LO:SIC:v:s=8b-\	!	!	!	!	!	!	!	!
8r	.	8c\	.	8g/ 8c#/	.	8b\	.	.	.	.	.	.	.	.
!	!	!	!	!	!	!LO:LB:g=original	!	!	!	!	!	!	!	!
=47	=47	=47	=47	=47	=47	=47	=47	=47	=47	=47	=47	=47	=47	=47
*	*	*	*	*^	*	*	*	*	*	*	*	*	*	*
!	!LO:DY:a	!	!LO:DY:a	!	!	!LO:DY:a	!	!LO:DY:a	!	!	!	!	!LO:DY:a:rj	!	!
8r	f	8e\	f	8b-X/	8g\	f	8cc#X\	f	4e/	.	4e/	4een\	f	4bb-X\	.
8AA/	.	4e\	.	4b-/	4g\	.	4cc#\	.	.	.	.	.	.	.	.
8BB-X/L	.	.	.	.	.	.	.	.	2e/	.	2e/	2ee\	.	2bb-\	.
8C#X/J	.	4e\	.	4b-/	4g\	.	4cc#\	.	.	.	.	.	.	.	.
8E\L	.	.	.	.	.	.	.	.	.	.	.	.	.	.	.
8G\J	.	4e\	.	4b-/	4g\	.	4cc#\	.	.	.	.	.	.	.	.
8c#X\	.	.	.	.	.	.	.	.	4e/	.	4e/	4ee\	.	4bb-\	.
8r	.	8e\	.	8b-/	8g\	.	8cc#\	.	.	.	.	.	.	.	.
!	!	!	!	!	!	!	!	!	!	!	!	!LO:LB:g=original	!	!	!
=48	=48	=48	=48	=48	=48	=48	=48	=48	=48	=48	=48	=48	=48	=48	=48
!	!LO:DY:a	!	!LO:DY:a	!LO:SIC:v:s=8b-/	!	!LO:DY:a	!LO:SIC:v:s=8cc#\	!LO:DY:a	!	!	!	!	!	!	!
8r	p	8e\	p	8b/	8g\	p	8cc\	p	1r	.	1r	1r	.	1r	.
!	!	!	!	!LO:SIC:v:s=4b-/	!	!	!LO:SIC:v:s=4cc#\	!	!	!	!	!	!	!	!
8AA/	.	4e\	.	4b/	4g\	.	4cc\	.	.	.	.	.	.	.	.
8BB-X/L	.	.	.	.	.	.	.	.	.	.	.	.	.	.	.
!	!	!	!	!LO:SIC:v:s=4b-/	!	!	!LO:SIC:v:s=4cc#\	!	!	!	!	!	!	!	!
8C#X/J	.	4e\	.	4b/	4g\	.	4cc\	.	.	.	.	.	.	.	.
8E\L	.	.	.	.	.	.	.	.	.	.	.	.	.	.	.
!	!	!	!	!LO:SIC:v:s=4b-/	!	!	!LO:SIC:v:s=4cc#\	!	!	!	!	!	!	!	!
8G\J	.	4e\	.	4b/	4g\	.	4cc\	.	.	.	.	.	.	.	.
8c#X\	.	.	.	.	.	.	.	.	.	.	.	.	.	.	.
!	!	!	!	!LO:SIC:v:s=8b-/	!	!	!LO:SIC:v:s=8cc#\	!	!	!	!	!	!	!	!
8r	.	8e\	.	8b/	8g\	.	8cc\	.	.	.	.	.	.	.	.
=49	=49	=49	=49	=49	=49	=49	=49	=49	=49	=49	=49	=49	=49	=49	=49
!	!LO:DY:a	!	!LO:DY:a	!	!	!LO:DY:a:t=for	!	!LO:DY:a	!	!	!	!	!LO:DY:a:rj	!	!LO:DY:a:rj:t=f
8r	f	8r	f	8a/	8f\	f	8dd\	f	4dd\	.	4dd\	4ff\	f	4aa\	f
8AA/	.	8A/	.	4a/	4f\	.	4dd\	.	.	.	.	.	.	.	.
8D\L	.	8d\L	.	.	.	.	.	.	2dd\	.	2dd\	2ff\	.	2aa\	.
8F\J	.	8f\J	.	4a/	4f\	.	4dd\	.	.	.	.	.	.	.	.
!LO:LB:g=original	!	!	!	!	!	!	!	!	!	!	!	!	!	!	!
8A\L	.	8a\L	.	.	.	.	.	.	.	.	.	.	.	.	.
8d\J	.	8dd\J	.	4a/	4f\	.	4dd\	.	.	.	.	.	.	.	.
8f\	.	8ff\	.	.	.	.	.	.	4dd\	.	4dd\	4ff\	.	4aa\	.
8r	.	8r	.	8a/	8f\	.	8dd\	.	.	.	.	.	.	.	.
*	*	*	*	*v	*v	*	*	*	*	*	*	*	*	*	*
!	!	!	!	!	!	!	!	!	!	!	!	!	!	!LO:LB:g=original
=50	=50	=50	=50	=50	=50	=50	=50	=50	=50	=50	=50	=50	=50	=50
!	!	!	!LO:DY:a	!	!	!	!LO:DY:a	!	!	!	!	!LO:DY:a	!	!LO:DY:a
8r	.	8r	p	8a-X/ 8B-/	p	8dd\	p	0r	.	0r	4ff\	p	4aa-X\	p
!	!LO:DY:a	!	!	!	!	!	!	!	!	!	!	!	!	!
8AA-X/	p	8A-X/	.	4a-/ 4B-/	.	4dd\	.	.	.	.	.	.	.	.
8D\L	.	8d\L	.	.	.	.	.	.	.	.	2ff\	.	2aa-\	.
8F\J	.	8f\J	.	4a-/ 4B-/	.	4dd\	.	.	.	.	.	.	.	.
8A-X\L	.	8a-X\L	.	.	.	.	.	.	.	.	.	.	.	.
8d\J	.	8dd\J	.	4a-/ 4B-/	.	4dd\	.	.	.	.	.	.	.	.
8f\	.	8ff\	.	.	.	.	.	.	.	.	4ff\	.	4aa-\	.
8r	.	8r	.	8a-/ 8B-/	.	8dd\	.	.	.	.	.	.	.	.
=51	=51	=51	=51	=51	=51	=51	=51	=51	=51	=51	=51	=51	=51	=51
*	*	*	*	*^	*	*	*	*	*	*	*	*	*	*
!	!LO:DY:a	!	!LO:DY:a	!	!	!	!	!LO:DY:a	!	!	!	!	!LO:DY:a:rj	!	!LO:DY:rj
8r	f	8r	f	8b-X/	8g\	f	8ee-X\	f	.	.	.	4gg\	f	4bb-X\	f
8BB-X/	.	8B-X/	.	4b-/	4g\	.	4ee-\	.	.	.	.	.	.	.	.
8E-X\L	.	8e-X|\L	.	.	.	.	.	.	.	.	.	2gg\	.	2bb-\	.
8G\J	.	8g|\J	.	4b-/	4g\	.	4ee-\	.	.	.	.	.	.	.	.
8E-X\L	.	8e-\L	.	.	.	.	.	.	.	.	.	.	.	.	.
8G\J	.	8g\J	.	4b-/	4g\	.	4ee-\	.	.	.	.	.	.	.	.
8B-X\	.	8b-X\	.	.	.	.	.	.	.	.	.	4gg\	.	4bb-\	.
8r	.	8r	.	8b-/	8g\	.	8ee-\	.	.	.	.	.	.	.	.
!	!	!LO:LB:g=original	!	!	!	!	!	!	!	!	!	!	!	!	!
=52	=52	=52	=52	=52	=52	=52	=52	=52	=52	=52	=52	=52	=52	=52	=52
!	!LO:DY:a	!	!LO:DY:a	!LO:SIC:v:s=8b-/	!	!LO:DY:a	!LO:SIC:v:s=8ee-\	!LO:DY:a	!	!	!	!	!	!	!
8r	p	8r	p	8b/	8g\	p	8ee\	p	1r	.	1r	1r	.	1r	.
!	!	!	!	!LO:SIC:v:s=4b-/	!	!	!LO:SIC:v:s=4ee-\	!	!	!	!	!	!	!	!
8BB-X/	.	8B-X/	.	4b/	4g\	.	4ee\	.	.	.	.	.	.	.	.
8E-X\L	.	8e-X\L	.	.	.	.	.	.	.	.	.	.	.	.	.
!	!	!	!	!LO:SIC:v:s=4b-/	!	!	!LO:SIC:v:s=4ee-\	!	!	!	!	!	!	!	!
8G\J	.	8g\J	.	4b/	4g\	.	4ee\	.	.	.	.	.	.	.	.
8E-\L	.	8e-\L	.	.	.	.	.	.	.	.	.	.	.	.	.
!	!	!	!	!LO:SIC:v:s=4b-/	!	!	!LO:SIC:v:s=4ee-\	!	!	!	!	!	!	!	!
8G\J	.	8g\J	.	4b/	4g\	.	4ee\	.	.	.	.	.	.	.	.
8B-X\	.	8b-X\	.	.	.	.	.	.	.	.	.	.	.	.	.
!	!	!	!	!LO:SIC:v:s=8b-/	!	!	!LO:SIC:v:s=8ee-\	!	!	!	!	!	!	!	!
8r	.	8r	.	8b/	8g\	.	8ee\	.	.	.	.	.	.	.	.
!	!	!	!	!LO:LB:g=original	!LO:LB:g=original	!	!	!	!LO:LB:g=original	!	!	!	!	!	!
=53	=53	=53	=53	=53	=53	=53	=53	=53	=53	=53	=53	=53	=53	=53	=53
!	!LO:DY:a	!	!LO:DY:a	!	!	!LO:DY:a:t=f.	!	!LO:DY:a	!	!	!	!	!	!	!LO:DY:a:rj
8r	f	8r	f	8cc#X/	8g\	f	8een\	f	4e/	.	4ee\	4bb-X\	.	4ccc#X\	f
8C#X/	.	8c#X\	.	4cc#/	4g\	.	4ee\	.	.	.	.	.	.	.	.
8En\L	.	8en\L	.	.	.	.	.	.	2e/	.	2ee\	2bb-\	.	2ccc#\	.
8G\J	.	8g\J	.	4cc#/	4g\	.	4ee\	.	.	.	.	.	.	.	.
8E\L	.	8e\L	.	.	.	.	.	.	.	.	.	.	.	.	.
8G\J	.	8g\J	.	4cc#/	4g\	.	4ee\	.	.	.	.	.	.	.	.
8B-X\	.	8b-X\	.	.	.	.	.	.	4e/	.	4ee\	4bb-\	.	4ccc#\	.
8r	.	8r	.	8cc#/	8g\	.	8ee\	.	.	.	.	.	.	.	.
!	!	!	!	!	!	!	!LO:LB:g=original	!	!	!	!	!	!	!	!
=54	=54	=54	=54	=54	=54	=54	=54	=54	=54	=54	=54	=54	=54	=54	=54
!	!LO:DY:a	!	!LO:DY:a	!LO:SIC:v:s=8cc#/	!	!LO:DY:t=p	!	!LO:DY:a	!	!	!	!	!	!	!
8r	p	8r	p	8cc/	8g\	p	8ee\	p	1r	.	1r	1r	.	1r	.
!	!	!	!	!LO:SIC:v:s=4cc#/	!	!	!	!	!	!	!	!	!	!	!
8C#X/	.	8c#X\	.	4cc/	4g\	.	4ee\	.	.	.	.	.	.	.	.
8En/L	.	8e\L	.	.	.	.	.	.	.	.	.	.	.	.	.
!	!	!	!	!LO:SIC:v:s=4cc#/	!	!	!	!	!	!	!	!	!	!	!
8G/J	.	8g\J	.	4cc/	4g\	.	4ee\	.	.	.	.	.	.	.	.
!LO:LB:g=original	!	!	!	!	!	!	!	!	!	!	!	!	!	!	!
8E\L	.	8e\L	.	.	.	.	.	.	.	.	.	.	.	.	.
!	!	!	!	!LO:SIC:v:s=4cc#/	!	!	!	!	!	!	!	!	!	!	!
8G\J	.	8g\J	.	4cc/	4g\	.	4ee\	.	.	.	.	.	.	.	.
8B-X\	.	8b-X\	.	.	.	.	.	.	.	.	.	.	.	.	.
!	!	!	!	!LO:SIC:v:s=8cc#/	!	!	!	!	!	!	!	!	!	!	!
8r	.	8r	.	8cc/	8g\	.	8ee\	.	.	.	.	.	.	.	.
!	!	!	!	!	!	!	!	!	!	!	!LO:LB:g=original	!	!	!	!
=55	=55	=55	=55	=55	=55	=55	=55	=55	=55	=55	=55	=55	=55	=55	=55
!	!LO:DY:a	!	!LO:DY:a	!	!	!LO:DY:a	!	!LO:DY:a	!	!	!	!	!	!	!
8r	f	8r	f	8dd/	8a\	f	8ff\	f	4dd\	.	4ff\	4ff\	.	4ddd\	f
8D\	.	8d\L	.	4dd/	4a\	.	4ff\	.	.	.	.	.	.	.	.
8F|\L	.	8f\	.	.	.	.	.	.	2dd\	.	2ff\	2ff\	.	2ddd\	.
8A|\J	.	8a\J	.	4dd/	4a\	.	4ff\	.	.	.	.	.	.	.	.
8F\L	.	8f\L	.	.	.	.	.	.	.	.	.	.	.	.	.
8A\J	.	8a\J	.	4dd/	4a\	.	4ff\	.	.	.	.	.	.	.	.
8d\	.	8dd\	.	.	.	.	.	.	4dd\	.	4ff\	4ff\	.	4ddd\	.
8r	.	8r	.	8dd/	8a\	.	8ff\	.	.	.	.	.	.	.	.
=56	=56	=56	=56	=56	=56	=56	=56	=56	=56	=56	=56	=56	=56	=56	=56
!	!LO:DY:a	!	!LO:DY:a	!	!	!LO:DY:a	!	!LO:DY:a	!	!	!	!	!	!	!
8r	p	8r	p	8dd/	8a\	p	8ff\	p	1r	.	1r	1r	.	1r	.
8D\	.	8d\	.	4dd/	4a\	.	4ff\	.	.	.	.	.	.	.	.
8F\L	.	8f\L	.	.	.	.	.	.	.	.	.	.	.	.	.
8A\J	.	8a\J	.	4dd/	4a\	.	4ff\	.	.	.	.	.	.	.	.
8F\L	.	8f\L	.	.	.	.	.	.	.	.	.	.	.	.	.
8A\J	.	8a\J	.	4dd/	4a\	.	4ff\	.	.	.	.	.	.	.	.
8d\	.	8dd\	.	.	.	.	.	.	.	.	.	.	.	.	.
8r	.	8r	.	8dd/	8a\	.	8ff\	.	.	.	.	.	.	.	.
=57	=57	=57	=57	=57	=57	=57	=57	=57	=57	=57	=57	=57	=57	=57	=57
!	!LO:DY:a	!	!LO:DY:a	!	!	!LO:DY:a	!	!LO:DY:a	!	!	!	!	!	!	!
8r	f	8r	f	8dd/	8a\	f	8ff#X\	f	4dd\	.	4dd\	4cc\	.	4aa\	.
8D\	.	8d\	.	4dd/	4a\	.	4ff#\	.	.	.	.	.	.	.	.
8F#X\L	.	8f#X\L	.	.	.	.	.	.	2dd\	.	2dd\	2cc\	.	2aa\	.
8A\J	.	8a\J	.	4dd/	4a\	.	4ff#\	.	.	.	.	.	.	.	.
8F#\L	.	8f#\L	.	.	.	.	.	.	.	.	.	.	.	.	.
8A\J	.	8a\J	.	4dd/	4a\	.	4ff#\	.	.	.	.	.	.	.	.
8d\	.	8dd\	.	.	.	.	.	.	4dd\	.	4dd\	4cc\	.	4aa\	.
8r	.	8r	.	8dd/	8a\	.	8ff#\	.	.	.	.	.	.	.	.
!	!	!LO:LB:g=original	!	!	!	!	!	!	!	!	!	!LO:LB:g=original	!	!	!
=58	=58	=58	=58	=58	=58	=58	=58	=58	=58	=58	=58	=58	=58	=58	=58
!	!LO:DY:a	!	!LO:DY:a	!	!	!LO:DY:a	!LO:SIC:v:s=8ff#\	!LO:DY:a	!	!	!	!	!	!	!
8r	p	8r	p	8ccn/	8a\	p	8ff\	p	1r	.	1r	1r	.	1r	.
!	!	!	!	!	!	!	!LO:SIC:v:s=4ff#\	!	!	!	!	!	!	!	!
8D\	.	8d\L	.	4cc/	4a\	.	4ff\	.	.	.	.	.	.	.	.
8F#X\L	.	8f#X\	.	.	.	.	.	.	.	.	.	.	.	.	.
!	!	!	!	!	!	!	!LO:SIC:v:s=4ff#\	!	!	!	!	!	!	!	!
8A\J	.	8a\J	.	4cc/	4a\	.	4ff\	.	.	.	.	.	.	.	.
8F#\L	.	8f#\L	.	.	.	.	.	.	.	.	.	.	.	.	.
!	!	!	!	!	!	!	!LO:SIC:v:s=4ff#\	!	!	!	!	!	!	!	!
8A\J	.	8a\	.	4cc/	4a\	.	4ff\	.	.	.	.	.	.	.	.
8d\	.	8ccn\	.	.	.	.	.	.	.	.	.	.	.	.	.
!	!	!	!	!	!	!	!LO:SIC:v:s=8ff#\	!	!	!	!	!	!	!	!
8r	.	8a\J	.	8cc/	8a\	.	8ff\	.	.	.	.	.	.	.	.
*	*	*	*	*v	*v	*	*	*	*	*	*	*	*	*	*
!	!	!	!	!LO:LB:g=original	!	!	!	!	!	!	!	!	!	!
=59	=59	=59	=59	=59	=59	=59	=59	=59	=59	=59	=59	=59	=59	=59
!	!	!	!LO:DY:a	!	!LO:DY:a:rj	!	!	!	!	!	!	!	!	!
8G\L	.	4g\	f	4b/ 4d/ 4G/	f	4gg/ 4b/ 4d/	.	4g/	.	4dd\	4gg\	.	4bbn\	.
8D\J	.	.	.	.	.	.	.	.	.	.	.	.	.	.
8BB/L	.	4g\	.	4b/ 4d/ 4G/	.	4gg/ 4b/ 4d/	.	4g/	.	4dd\	4gg\	.	4bb\	.
8D/J	.	.	.	.	.	.	.	.	.	.	.	.	.	.
4GG/	.	4g\	.	4b/ 4d/ 4G/	.	4gg/ 4b/ 4d/	.	4g/	.	4dd\	4gg\	.	4bb\	.
4r	.	4r	.	4r	.	4r	.	4r	.	4r	4r	.	4r	.
!LO:LB:g=original	!	!	!	!	!	!	!	!	!	!	!	!	!LO:LB:g=original	!
=60	=60	=60	=60	=60	=60	=60	=60	=60	=60	=60	=60	=60	=60	=60
!	!LO:DY:a:rj	!	!	!	!LO:DY:rj	!	!LO:DY:a	!	!	!	!	!	!	!
4C/	f	4c/	.	4cc/ 4e/ 4G/	f	4cc/ 4e/ 4G/	f	4c/	.	4dd\	4cc\	.	4ee\	.
16C/LL	.	16c/LL	.	16c/LL	.	4r	.	4r	.	4r	4ee\	.	4gg\	.
16BB/	.	16B/	.	16B/	.	.	.	.	.	.	.	.	.	.
16C/	.	16c/	.	16c/	.	.	.	.	.	.	.	.	.	.
16D/JJ	.	16d/JJ	.	16d/JJ	.	.	.	.	.	.	.	.	.	.
16E\LL	.	16e\LL	.	16e/LL	.	4r	.	4r	.	4r	4ee\	.	4gg\	.
16D\	.	16d\	.	16d/	.	.	.	.	.	.	.	.	.	.
16E\	.	16e\	.	16e/	.	.	.	.	.	.	.	.	.	.
16F\JJ	.	16f\JJ	.	16f/JJ	.	.	.	.	.	.	.	.	.	.
16A\LL	.	16g\LL	.	16g/LL	.	8r	.	4G/	.	4g/	4dd\	.	4ff\	.
16F\	.	16f\	.	16f/	.	.	.	.	.	.	.	.	.	.
16E\	.	16e\	.	16e/	.	8b/ 8d/ 8G/	.	.	.	.	.	.	.	.
16D\JJ	.	16d\JJ	.	16d/JJ	.	.	.	.	.	.	.	.	.	.
!	!	!	!	!	!	!LO:LB:g=original	!	!LO:LB:g=original	!	!	!	!	!	!
=61	=61	=61	=61	=61	=61	=61	=61	=61	=61	=61	=61	=61	=61	=61
4C/	.	4c\	.	4c/	.	4cc/ 4e/ 4G/	.	4c/	.	4cc\	4cc\	.	4ee\	.
16C/LL	.	16c\LL	.	16c/LL	.	4r	.	4r	.	4r	8ee\L	.	8ccc\L	.
16BB/	.	16B\	.	16B/	.	.	.	.	.	.	.	.	.	.
16C/	.	16c\	.	16c/	.	.	.	.	.	.	8ff\J	.	8aa\J	.
16D/JJ	.	16d\JJ	.	16d/JJ	.	.	.	.	.	.	.	.	.	.
16E/LL	.	16e\LL	.	16e/LL	.	4r	.	4r	.	4r	4ee\	.	4gg\	.
16D/	.	16d\	.	16d/	.	.	.	.	.	.	.	.	.	.
16E/	.	16e\	.	16e/	.	.	.	.	.	.	.	.	.	.
16F/JJ	.	16f\JJ	.	16f/JJ	.	.	.	.	.	.	.	.	.	.
16G/LL	.	16g\LL	.	16g/LL	.	8r	.	4G/	.	4g/	4dd\	.	4ff\	.
16F/	.	16f\	.	16f/	.	.	.	.	.	.	.	.	.	.
16E/	.	16e\	.	16e/	.	8b/ 8d/ 8G/	.	.	.	.	.	.	.	.
16D/JJ	.	16d\JJ	.	16d/JJ	.	.	.	.	.	.	.	.	.	.
=62	=62	=62	=62	=62	=62	=62	=62	=62	=62	=62	=62	=62	=62	=62
!	!	!	!LO:DY:a	!	!LO:DY:a:t=pia&colon;	!	!LO:DY:a	!	!	!	!	!	!	!
4C/	.	4c\	p	8e/L	p	(8cc\L	p	4c/	.	4cc\	4cc\	.	4ee\	.
.	.	.	.	8e/	.	8gg\)	.	.	.	.	.	.	.	.
4r	.	4r	.	8e/	.	(8ee\	.	4r	.	4r	4r	.	4r	.
.	.	.	.	8e/J	.	8cc\J)	.	.	.	.	.	.	.	.
.	.	.	.	.	.	8qqcc/	.	.	.	.	.	.	.	.
*	*	*	*	*	*	*2\right	*	*	*	*	*	*	*	*
!	!LO:DY:a	!	!	!	!	!	!	!	!	!	!	!	!	!
2C/	p	2g\	.	8e/L	.	2b-X\	.	2r	.	2r	2r	.	2r	.
.	.	.	.	8e/	.	.	.	.	.	.	.	.	.	.
.	.	.	.	8e/	.	.	.	.	.	.	.	.	.	.
!	!	!	!	!LO:TX:a:t=vi	!	!	!	!	!	!	!	!	!	!
.	.	.	.	8e/J	.	.	.	.	.	.	.	.	.	.
!	!	!	!	!LO:PB:g=original	!	!	!	!	!	!LO:LB:g=original	!	!	!	!
=63	=63	=63	=63	=63	=63	=63	=63	=63	=63	=63	=63	=63	=63	=63
!	!	!	!	!LO:TX:a:t=de	!	!	!	!	!	!	!	!	!	!
4F\	.	4c\	.	8f/L	.	(8a\L	.	00r	.	00r	00r	.	00r	.
.	.	.	.	8f#X/	.	8aa\)	.	.	.	.	.	.	.	.
4r	.	4r	.	8f#/	.	(8ff#X\	.	.	.	.	.	.	.	.
.	.	.	.	8f#/J	.	8dd\J)	.	.	.	.	.	.	.	.
.	.	.	.	.	.	8qqdd/	.	.	.	.	.	.	.	.
*2\right	*	*	*	*	*	*	*	*	*	*	*	*	*	*
2D\	.	2a\	.	8f#/L	.	2cc\	.	.	.	.	.	.	.	.
.	.	.	.	8f#/	.	.	.	.	.	.	.	.	.	.
.	.	.	.	8f#/	.	.	.	.	.	.	.	.	.	.
.	.	.	.	8f#/J	.	.	.	.	.	.	.	.	.	.
=64	=64	=64	=64	=64	=64	=64	=64	=64	=64	=64	=64	=64	=64	=64
2G\	.	4d\	.	8g/L	.	8bn\L	.	.	.	.	.	.	.	.
.	.	.	.	8b/	.	8ddd\	.	.	.	.	.	.	.	.
.	.	4r	.	8b/	.	(8bb\	.	.	.	.	.	.	.	.
.	.	.	.	8b/J	.	8gg\J)	.	.	.	.	.	.	.	.
.	.	.	.	.	.	8qqgg/	.	.	.	.	.	.	.	.
2G\	.	2d\	.	8b/L	.	2ff\	.	.	.	.	.	.	.	.
.	.	.	.	8b/	.	.	.	.	.	.	.	.	.	.
.	.	.	.	8b/	.	.	.	.	.	.	.	.	.	.
.	.	.	.	8b/J	.	.	.	.	.	.	.	.	.	.
!	!	!LO:LB:g=original	!	!	!	!	!	!	!	!	!	!	!	!
=65	=65	=65	=65	=65	=65	=65	=65	=65	=65	=65	=65	=65	=65	=65
4c\	.	4G/	.	(8cc\L	.	8ee\L	.	.	.	.	.	.	.	.
.	.	.	.	8ee\)	.	8ccc\	.	.	.	.	.	.	.	.
4r	.	4r	.	(8ee\	.	(8gg\	.	.	.	.	.	.	.	.
.	.	.	.	8cc\J)	.	8ee\J)	.	.	.	.	.	.	.	.
.	.	.	.	8qqee/	.	8qqgg/	.	.	.	.	.	.	.	.
2G\	.	2B/	.	2dd\	.	2ff\	.	.	.	.	.	.	.	.
=66	=66	=66	=66	=66	=66	=66	=66	=66	=66	=66	=66	=66	=66	=66
4C/	.	4G/	.	(8cc\L	.	8ee\L	.	.	.	.	.	.	.	.
.	.	.	.	8ee\)	.	8ccc\	.	.	.	.	.	.	.	.
4r	.	4r	.	(8ee\	.	8gg\	.	.	.	.	.	.	.	.
.	.	.	.	8cc\J)	.	8ee\J	.	.	.	.	.	.	.	.
.	.	.	.	8qqee/	.	8qqgg/	.	.	.	.	.	.	.	.
2G\	.	2B/	.	2dd\	.	2ff\	.	.	.	.	.	.	.	.
!LO:PB:g=original	!	!	!	!	!	!	!	!	!	!	!	!	!	!
=67	=67	=67	=67	=67	=67	=67	=67	=67	=67	=67	=67	=67	=67	=67
!	!LO:DY:a:rj	!	!LO:DY:a	!	!LO:DY:a:t=for	!	!	!	!	!	!	!	!	!
4.C/	f	4.c\	f	4.cc\	f	4.ff\	.	2r	.	2r	4cc\	.	4ee\	.
.	.	.	.	.	.	.	.	.	.	.	4r	.	4r	.
!	!	!	!	!	!	!	!LO:DY:a:t=for	!	!	!	!	!	!	!
(32C/LLL	.	32c\LLL	.	32c/LLL	.	(32c/LLL	f	.	.	.	.	.	.	.
32D/	.	(32d\	.	(32d/	.	32d/	.	.	.	.	.	.	.	.
32E/	.	32e\	.	32e/	.	32e/	.	.	.	.	.	.	.	.
32F/JJJ)	.	32f\JJJ)	.	32f/JJJ)	.	32f/JJJ)	.	.	.	.	.	.	.	.
4.G\	.	4.g\	.	4.g/	.	4.g/	.	4e/	.	4g/	4ee\	.	4gg\	.
.	.	.	.	.	.	.	.	4r	.	4r	4r	.	4r	.
*Xtuplet	*	*	*	*	*	*	*	*	*	*	*	*	*	*
40E\LLL	.	40e\LLL	.	40e/LLL	.	40e/LLL	.	.	.	.	.	.	.	.
(40F\	.	(40f\	.	(40f/	.	(40f/	.	.	.	.	.	.	.	.
40G\	.	40g\	.	40g/	.	40g/	.	.	.	.	.	.	.	.
40A\)	.	40a\)	.	40a/)	.	40a/)	.	.	.	.	.	.	.	.
40B\JJJ	.	40b\JJJ	.	40b/JJJ	.	40b/JJJ	.	.	.	.	.	.	.	.
!	!	!	!	!LO:LB:g=original	!	!	!	!	!	!	!	!	!	!
=68	=68	=68	=68	=68	=68	=68	=68	=68	=68	=68	=68	=68	=68	=68
4.c\	.	4.cc\	.	4.cc\	.	4.cc\	.	4e/	.	4cc\	4ee\	.	4ccc\	.
.	.	.	.	.	.	.	.	4r	.	4r	4r	.	4r	.
40G\LLL	.	40g\LLL	.	40g\LLL	.	40g\LLL	.	.	.	.	.	.	.	.
(40A\	.	(40a\	.	(40a\	.	(40a\	.	.	.	.	.	.	.	.
40B\	.	40b\	.	40b\	.	40b\	.	.	.	.	.	.	.	.
40c\)	.	40cc\)	.	40cc\)	.	40cc\)	.	.	.	.	.	.	.	.
40d\JJJ	.	40dd\JJJ	.	40dd\JJJ	.	40dd\JJJ	.	.	.	.	.	.	.	.
4.e\	.	4.ee\	.	4.ee\	.	4.ee\	.	4cc\	.	4ee\	4cc\	.	4ee\	.
.	.	.	.	.	.	.	.	4r	.	4r	4r	.	4r	.
32C\LLL	.	32c\LLL	.	32cc\LLL	.	32cc\LLL	.	.	.	.	.	.	.	.
(32D\	.	(32d\	.	(32dd\	.	(32dd\	.	.	.	.	.	.	.	.
32E\	.	32e\	.	32ee\	.	32ee\)	.	.	.	.	.	.	.	.
32F\JJJ)	.	32f\JJJ)	.	32ff\JJJ)	.	32ff\JJJ	.	.	.	.	.	.	.	.
!	!	!	!	!	!	!	!	!	!	!	!LO:LB:g=original	!	!	!
=69	=69	=69	=69	=69	=69	=69	=69	=69	=69	=69	=69	=69	=69	=69
4.G\	.	4.g\	.	4.gg\	.	4.gg\	.	4ee\	.	4gg\	4ee\	.	4gg\	.
.	.	.	.	.	.	.	.	4r	.	4r	4r	.	4r	.
40E\LLL	.	40e\LLL	.	40ee\LLL	.	40ee\LLL	.	.	.	.	.	.	.	.
40F\	.	(40f\	.	(40ff\	.	(40ff\	.	.	.	.	.	.	.	.
(40G\	.	40g\	.	40gg\	.	40gg\	.	.	.	.	.	.	.	.
40A\	.	40a\)	.	40aa\)	.	40aa\)	.	.	.	.	.	.	.	.
40B\JJJ)	.	40b\JJJ	.	40bb\JJJ	.	40bb\JJJ	.	.	.	.	.	.	.	.
4.c\	.	4.cc\	.	4.ccc\	.	4.ccc\	.	4cc\	.	4ee\	4.ee\	.	4.ccc\	.
.	.	.	.	.	.	.	.	4r	.	4r	.	.	.	.
8E\	.	8e\	.	8e/	.	8e/	.	.	.	.	8ee\	.	8ee\	.
=70	=70	=70	=70	=70	=70	=70	=70	=70	=70	=70	=70	=70	=70	=70
8F\L	.	8f\L	.	8f/L	.	8f/L	.	1r	.	1r	8ff\L	.	8ff\L	.
8D\J	.	8d\J	.	8d/J	.	8d/J	.	.	.	.	8dd\J	.	8dd\J	.
8G\L	.	8g\L	.	8g/L	.	8g/L	.	.	.	.	8gg\L	.	8gg\L	.
8G\J	.	8g\J	.	8g/J	.	8g/J	.	.	.	.	8gg\J	.	8gg\J	.
4.A\	.	4.a\	.	4.a/	.	4.a/	.	.	.	.	4aa\	.	4aa\	.
.	.	.	.	.	.	.	.	.	.	.	4r	.	4r	.
32C\LLL	.	32c\LLL	.	32c/LLL	.	32c/LLL	.	.	.	.	.	.	.	.
(32D\	.	(32d\	.	(32d/	.	(32d/	.	.	.	.	.	.	.	.
32E\)	.	32e\)	.	32e/	.	32e/	.	.	.	.	.	.	.	.
32F\JJJ	.	32f\JJJ	.	32f/JJJ)	.	32f/JJJ)	.	.	.	.	.	.	.	.
!LO:LB:g=original	!	!LO:LB:g=original	!	!	!	!	!	!	!	!	!	!	!LO:LB:g=original	!
=71	=71	=71	=71	=71	=71	=71	=71	=71	=71	=71	=71	=71	=71	=71
4.G\	.	4.g\	.	4.g/	.	4.g/	.	4e/	.	4g/	4gg\	.	4gg\	.
.	.	.	.	.	.	.	.	4r	.	4r	4r	.	4r	.
40E\LLL	.	40e\LLL	.	40e/LLL	.	40e/LLL	.	.	.	.	.	.	.	.
40F\	.	40f\	.	40f/	.	(40f/	.	.	.	.	.	.	.	.
40G\	.	(40g\	.	(40g/	.	40g/	.	.	.	.	.	.	.	.
40A\	.	40a\)	.	40a/	.	40a/	.	.	.	.	.	.	.	.
40B\JJJ	.	40b\JJJ	.	40b/JJJ)	.	40b/JJJ)	.	.	.	.	.	.	.	.
4.c\	.	4.cc\	.	4.cc\	.	4.cc\	.	4e/	.	4cc\	4gg\	.	4ccc\	.
.	.	.	.	.	.	.	.	4r	.	4r	4r	.	4r	.
!	!	!	!	!	!	!LO:LB:g=original	!	!	!	!	!	!	!	!
40G\LLL	.	40g\LLL	.	40g\LLL	.	40g\LLL	.	.	.	.	.	.	.	.
(40A\	.	40a\	.	(40a\	.	(40a\	.	.	.	.	.	.	.	.
40B\	.	(40b\	.	40b\	.	40b\	.	.	.	.	.	.	.	.
40c\)	.	40cc\)	.	40cc\)	.	40cc\)	.	.	.	.	.	.	.	.
40d\JJJ	.	40dd\JJJ	.	40dd\JJJ	.	40dd\JJJ	.	.	.	.	.	.	.	.
!	!	!	!	!LO:LB:g=original	!	!	!	!LO:LB:g=original	!	!	!	!	!	!
=72	=72	=72	=72	=72	=72	=72	=72	=72	=72	=72	=72	=72	=72	=72
4.e\	.	4.ee\	.	4.ee\	.	4.ee\	.	4cc\	.	4ee\	4ee\	.	4ee\	.
.	.	.	.	.	.	.	.	4r	.	4r	4r	.	4r	.
32C\LLL	.	32c\LLL	.	32cc\LLL	.	32cc\LLL	.	.	.	.	.	.	.	.
(32D/	.	(32d\	.	(32dd\	.	(32dd\	.	.	.	.	.	.	.	.
32E\	.	32e\)	.	32ee\	.	32ee\)	.	.	.	.	.	.	.	.
32F\JJJ)	.	32f\JJJ	.	32ff\JJJ)	.	32ff\JJJ	.	.	.	.	.	.	.	.
4.G\	.	4.g\	.	4.gg\	.	4.gg\	.	4ee\	.	4gg\	4gg\	.	4gg\	.
.	.	.	.	.	.	.	.	4r	.	4r	4r	.	4r	.
40E\LLL	.	40e\LLL	.	40ee\LLL	.	40ee\LLL	.	.	.	.	.	.	.	.
(40F\	.	(40f\	.	(40ff\	.	(40ff\	.	.	.	.	.	.	.	.
40G\	.	40g\	.	40gg\	.	40gg\	.	.	.	.	.	.	.	.
40A\	.	40a\)	.	40aa\)	.	40aa\)	.	.	.	.	.	.	.	.
40B\JJJ)	.	40b\JJJ	.	40bb\JJJ	.	40bb\JJJ	.	.	.	.	.	.	.	.
!	!	!	!	!	!	!	!	!	!	!LO:LB:g=original	!	!	!	!
=73	=73	=73	=73	=73	=73	=73	=73	=73	=73	=73	=73	=73	=73	=73
4.c\	.	4.cc\	.	4.ccc\	.	4.ccc\	.	4cc\	.	4ee\	4.ccc\	.	4.ccc\	.
.	.	.	.	.	.	.	.	4r	.	4r	.	.	.	.
8E\	.	8e\	.	8e/	.	8ee\	.	.	.	.	8ee\	.	8ee\	.
8F\L	.	8f\L	.	8f/L	.	8ff|\L	.	4ee\	.	4ff\	8ff\L	.	8ff\L	.
8D\J	.	8d\J	.	8d/J	.	8dd|\J	.	.	.	.	8dd\J	.	8dd\J	.
!LO:TX:t=P:problem=mixed beam	!	!LO:TX:t=P:problem=mixed beam	!	!	!	!LO:TX:t=P:problem=mixed beam	!	!	!	!	!	!	!	!
8G\L	.	8g/L	.	8g/L	.	8gg\L	.	4gg\	.	4gg\	4gg\	.	4gg\	.
8GG/J	.	8E/J	.	8G/J	.	8g/J	.	.	.	.	.	.	.	.
!	!	!	!	!	!	!	!	!	!	!	!LO:LB:g=original	!	!	!
=74	=74	=74	=74	=74	=74	=74	=74	=74	=74	=74	=74	=74	=74	=74
4C/	.	4c\	.	4c/	.	4cc/ 4e/ 4G/	.	4cc\	.	4cc\	4ee\	.	4ee\	.
16C/LL	.	(16c\LL	.	16c/LL	.	4r	.	4r	.	4r	4gg\	.	4gg\	.
16BB/	.	16B\	.	16B/	.	.	.	.	.	.	.	.	.	.
16C/	.	16c\	.	16c/	.	.	.	.	.	.	.	.	.	.
16D/JJ	.	16d\JJ	.	16d/JJ	.	.	.	.	.	.	.	.	.	.
16E/LL	.	16e\LL	.	16e/LL	.	4r	.	4r	.	4r	4gg\	.	4gg\	.
16D/	.	16d\	.	16d/	.	.	.	.	.	.	.	.	.	.
16E/	.	16e\	.	16e/	.	.	.	.	.	.	.	.	.	.
16F/JJ	.	16f\JJ	.	16f/JJ	.	.	.	.	.	.	.	.	.	.
16G/LL	.	16g\LL	.	16g/LL	.	8r	.	4G/	.	4g/	4ff\	.	4ff\	.
16F/	.	16f\)	.	16f/	.	.	.	.	.	.	.	.	.	.
16E/	.	16e\	.	16e/	.	8b/ 8d/ 8G/	.	.	.	.	.	.	.	.
16D/JJ	.	16d\JJ	.	16d/JJ	.	.	.	.	.	.	.	.	.	.
!LO:LB:g=original	!	!	!	!	!	!	!	!	!	!	!	!	!	!
=75	=75	=75	=75	=75	=75	=75	=75	=75	=75	=75	=75	=75	=75	=75
4C/	.	4c\	.	4c/	.	4cc/ 4e/ 4G/	.	4c/	.	4cc\	4ee\	.	4ee\	.
16C/LL	.	(16c\LL	.	16c/LL	.	4r	.	4r	.	4r	8ee\L	.	8ccc\L	.
16BB/	.	16B\	.	16B/	.	.	.	.	.	.	.	.	.	.
16C/	.	16c\	.	16c/	.	.	.	.	.	.	8ff\J	.	8aa\J	.
16D/JJ	.	16d\JJ	.	16d/JJ	.	.	.	.	.	.	.	.	.	.
16E\LL	.	16e\LL	.	16e/LL	.	4r	.	4r	.	4r	4ee\	.	4gg\	.
16D\	.	16d\	.	16d/	.	.	.	.	.	.	.	.	.	.
16E\	.	16e\	.	16e/	.	.	.	.	.	.	.	.	.	.
16F\JJ	.	16f\JJ)	.	16f/JJ	.	.	.	.	.	.	.	.	.	.
!	!	!LO:LB:g=original	!	!	!	!	!	!	!	!	!	!	!	!
16G\LL	.	16g\LL	.	16g/LL	.	4b/ 4d/ 4G/	.	4G/	.	4g/	4dd\	.	4ff\	.
16F\	.	16f\	.	16f/	.	.	.	.	.	.	.	.	.	.
16E\	.	16e\	.	16e/	.	.	.	.	.	.	.	.	.	.
16D\JJ	.	16d\JJ	.	16d/JJ	.	.	.	.	.	.	.	.	.	.
!	!	!	!	!LO:LB:g=original	!	!	!	!	!	!	!	!	!	!
=76	=76	=76	=76	=76	=76	=76	=76	=76	=76	=76	=76	=76	=76	=76
4C/	.	4c\	.	4e/ 4G/	.	4cc/ 4e/ 4G/	.	4c/	.	4cc\	4cc\	.	4ee\	.
4C/	.	4c\	.	4e/ 4G/	.	4cc/ 4e/ 4G/	.	4e/	.	4cc\	4cc\	.	4ee\	.
4C/	.	4c\	.	4e/ 4G/	.	4cc/ 4e/ 4G/	.	4e/	.	4cc\	4cc\	.	4ee\	.
!	!	!	!	!	!	!	!	!	!	!	!LO:TX:b:i:t=Seque Andante molto	!	!	!
4r	.	4r	.	4r	.	4r	.	4r	.	4r	4r	.	4r	.
=:|!	=:|!	=:|!	=:|!	=:|!	=:|!	=:|!	=:|!	=:|!	=:|!	=:|!	=:|!	=:|!	=:|!	=:|!
*-	*-	*-	*-	*-	*-	*-	*-	*-	*-	*-	*-	*-	*-	*-
!!!system-decoration: [(g1)][(g2)][(g3)]
!!!AIN: 1 cbass 2 cor 2 oboe 1 viola 2 violn
!!!ENC: Andrzej Gręziak
!!!END: 2020-07-22
!!!EED: Andrzej Borzym
!!!RDF**kern: | = vertical stroke
!!!EST: 2022-02-20
!!!RDF**dynam: f = "f:"
!!!RDF**dynam: p = "p:"
!!!RDF**kern: > = above
!!!RDF**kern: < = below
